!!!COM: Schiørring, Niels
!!!CDT: 1743-1798
!!!OPR@@DA: Choral-Bog
!!!ONM: 62
!!!OTL@@DA: Litaniet.
**kern	**fb	**kern	**kern	**kern	**kern	**kern	**kern	**kern
*part6	*part6	*part6	*part5	*part5	*part4	*part3	*part2	*part1
*staff8	*	*staff7	*staff6	*staff5	*staff4	*staff3	*staff2	*staff1
*clefF4	*	*clefC1	*clefF4	*clefC1	*clefF4	*clefC4	*clefC3	*clefC1
*k[f#]	*	*k[f#]	*k[f#]	*k[f#]	*k[f#]	*k[f#]	*k[f#]	*k[f#]
*G:	*	*G:	*G:	*G:	*G:	*G:	*G:	*G:
*M4/4	*	*M4/4	*M4/4	*M4/4	*M4/4	*M4/4	*M4/4	*M4/4
*met(c)	*	*met(c)	*met(c)	*met(c)	*met(c)	*met(c)	*met(c)	*met(c)
*MM180	*	*MM180	*MM180	*MM180	*MM180	*MM180	*MM180	*MM180
=1	=1	=1	=1	=1	=1	=1	=1	=1
*	*	*	*^	*^	*	*	*	*
2G	.	2g	2G	2B	2g	2d	2G	2B	2d	2g
2F#	6	2a	2F#	2A	2a	2d	2F#	2d	2d	2a
=2	=2	=2	=2	=2	=2	=2	=2	=2	=2	=2
2G	.	2b	2G	2d	2b	2g	2G	2d	2g	2b
2E	.	2b	2E	[2G	2b	2g	2E	2e	[2g	2b
=3	=3	=3	=3	=3	=3	=3	=3	=3	=3	=3
2C	6 5	2.a	2C	2G]	2.a	2e	2C	2e	2g]	2.a
2D	5	.	2D	2F#	.	2d	2D	2d	2f#	.
.	6	4b	.	.	4b	.	.	.	.	4b
=4	=4	=4	=4	=4	=4	=4	=4	=4	=4	=4
2GG	.	2b	2GG	2G	2b	2d	2GG	2d	2g	2b
2GG	.	2b	2GG	2G	2b	2d	2GG	2d	2g	2b
=5	=5	=5	=5	=5	=5	=5	=5	=5	=5	=5
2BB	6	2b	2BB	2G	2b	2d	2BB	2d	2g	2b
2C	6	4a	2C	2c	4a	2e	4C	4c	4e	4a
.	.	4a	.	.	4a	.	4C	4c	4e	4a
=6	=6	=6	=6	=6	=6	=6	=6	=6	=6	=6
2D	6 5 n	2a	2D	1B	2a	2fn	2D	2B	2fn	2a
2E	#	2g#X	2E	.	2g#X	2e	2E	2B	2e	2g#X
=7	=7	=7	=7	=7	=7	=7	=7	=7	=7	=7
*	*	*	*	*	*	*^	*	*	*	*
1AA	.	1a	1AA	1A	1a	1e	1c\	1AA	1c	1e	1a
*	*	*	*v	*v	*	*	*	*	*	*	*
=8	=8	=8	=8	=8	=8	=8	=8	=8	=8	=8
*	*	*	*	*	*	*^	*	*	*	*
1D	.	1a	1D	1a	1d	1f#\	1r	1D	1d	1f#	1a
=9	=9	=9	=9	=9	=9	=9	=9	=9	=9	=9	=9
2G	.	2b	2G	2b	2d	2g\	1r	2G	2d	2g	2b
2BB	6	2b	2BB	2b	2d	2g\	.	2BB	2d	2g	2b
=10	=10	=10	=10	=10	=10	=10	=10	=10	=10	=10	=10
2D	5_	2.a	2D	2.a	1d	1f#\	1r	2D	2d	2f#	2.a
2D	.	.	2D	.	.	.	.	2D	2d	2f#	.
.	6	4b	.	4b	.	.	.	.	.	.	4b
=11	=11	=11	=11	=11	=11	=11	=11	=11	=11	=11	=11
1GG	.	1b	1GG	1b	1d	1g\	1r	1GG	1d	1g	1b
=12	=12	=12	=12	=12	=12	=12	=12	=12	=12	=12	=12
2E	.	2b	2E	2b	2e	2g\	1r	2E	2e	2g	2b
2C	6	4a	2C	4a	2e	2e/	.	4C	4e	4e	4a
.	.	4a	.	4a	.	.	.	4C	4e	4e	4a
=13	=13	=13	=13	=13	=13	=13	=13	=13	=13	=13	=13
2BB	7	2a	2BB	2a	2d	2fn\	1r	2BB	2d	2fn	2a
*	*	*	*^	*	*	*	*	*	*	*	*
2E	#	2g#X	2E	2B	2g#X	2ryy	2e\	.	2E	2B	2e	2g#X
*	*	*	*	*	*	*	*v	*v	*	*	*	*
=14	=14	=14	=14	=14	=14	=14	=14	=14	=14	=14	=14
1AA	.	1a	1AA	1A	1a	1e	1c\	1AA	1c	1e	1a
*	*	*	*v	*v	*	*	*	*	*	*	*
=15	=15	=15	=15	=15	=15	=15	=15	=15	=15	=15
*	*	*	*	*	*	*^	*	*	*	*
2BB	6	2g	2BB	2g	2B	2d\	1r	2BB	2B	2d	2g
*	*	*	*^	*	*	*	*	*	*	*	*
2D	.	2a	2D	2F#	2a	2ryy	2d\	.	2D	2F#	2d	2a
=16	=16	=16	=16	=16	=16	=16	=16	=16	=16	=16	=16	=16
2G	.	2b	2G	2G	2b	2ryy	2d\	1r	2G	2G	2d	2b
*	*	*	*v	*v	*	*	*	*	*	*	*	*
2GG	.	2b	2GG	2b	2d	2g\	.	2GG	2d	2g	2b
=17	=17	=17	=17	=17	=17	=17	=17	=17	=17	=17	=17
2D	5_	2.a	2D	2.a	1d	1f#\	1r	2D	2d	2f#	2.a
2D	.	.	2D	.	.	.	.	2D	2d	2f#	.
.	6	4b	.	4b	.	.	.	.	.	.	4b
=18	=18	=18	=18	=18	=18	=18	=18	=18	=18	=18	=18
2GG	.	2b	2GG	2b	2d	2g\	1r	2GG	2d	2g	2b
2G	.	4b	2G	4b	2d	2g\	.	4G	4d	4g	4b
.	.	4b	.	4b	.	.	.	4G	4d	4g	4b
=19	=19	=19	=19	=19	=19	=19	=19	=19	=19	=19	=19
2F#	2	2b	2F#	2b	2d	2g\	1r	2F#	2d	2g	2b
2E	.	2b	2E	2b	2e	2g\	.	2E	2e	2g	2b
=20	=20	=20	=20	=20	=20	=20	=20	=20	=20	=20	=20
2D	4	2b	2D	2b	2e	2g#X\	1r	2D	2e	2g#X	2b
2C	6	2a	2C	2a	2e	2a\	.	2C	2e	2a	2a
*	*	*	*	*	*	*v	*v	*	*	*	*
=21	=21	=21	=21	=21	=21	=21	=21	=21	=21	=21
*	*	*	*^	*	*	*	*	*	*	*
2D	6 5 n	2a	2D	1B	2a	2fn	1r	2D	2B	2fn	2a
2E	#	2g#X	2E	.	2g#X	2e	.	2E	2B	2e	2g#X
*	*	*	*v	*v	*	*	*	*	*	*	*
=22	=22	=22	=22	=22	=22	=22	=22	=22	=22	=22
*	*	*	*	*	*	*^	*	*	*	*
1AA	.	1a	1AA	1a	1c	1e\	1r	1AA	1c	1e	1a
=23||	=23||	=23||	=23||	=23||	=23||	=23||	=23||	=23||	=23||	=23||	=23||
2B	6	2g	2B	2g	2d	2d/	1r	2B	2d	2d	2g
*	*	*	*^	*	*	*	*	*	*	*	*
2G	.	4g	2G	2B	4g	4ryy	2d\	.	4G	4B	4d	4g
.	.	4g	.	.	4g	4ryy	.	.	4G	4B	4d	4g
*	*	*	*	*	*	*	*v	*v	*	*	*	*
=24	=24	=24	=24	=24	=24	=24	=24	=24	=24	=24	=24
2D	.	2a	2D	2F#	2a	2d	1r	2D	2F#	2d	2a
2E	.	4g	2E	[2G	4g	2B	.	4E	4G	4B	4g
.	.	4g	.	.	4g	.	.	4E	4G	4B	4g
=25	=25	=25	=25	=25	=25	=25	=25	=25	=25	=25	=25
2C	6 5	2a	2C	2G]	2a	2e	1r	2C	2G	2e	2a
2D	.	2a	2D	2F#	2a	2d	.	2D	2F#	2d	2a
=26	=26	=26	=26	=26	=26	=26	=26	=26	=26	=26	=26
2GG	.	2b	2GG	2G	2b	2d	1r	2GG	2G	2d	2b
2E	.	2b	2E	2G	2b	2g	.	2E	2G	2g	2b
=27	=27	=27	=27	=27	=27	=27	=27	=27	=27	=27	=27
2BB	6	2b	2BB	2G	2b	2d	1r	2BB	2d	2g	2b
2C	6	4a	2C	2c	4a	2e	.	4C	4c	4e	4a
.	.	4a	.	.	4a	.	.	4C	4c	4e	4a
=28	=28	=28	=28	=28	=28	=28	=28	=28	=28	=28	=28
2D	6 5 n	2a	2D	1B	2a	2fn	1r	2D	2B	2fn	2a
2E	#	2g#X	2E	.	2g#X	2e	.	2E	2B	2e	2g#X
*	*	*	*v	*v	*	*	*	*	*	*	*
=29	=29	=29	=29	=29	=29	=29	=29	=29	=29	=29
*	*	*	*	*	*	*^	*	*	*	*
2AA	.	2a	2AA	2a	2c	2e\	1r	2AA	2c	2e	2a
*	*	*	*^	*	*	*	*	*	*	*	*
2BB	6	4gni	2BB	2Gni	4gni	4ryy	2d\	.	4BB	4G	4d	4gni
.	.	4g	.	.	4g	4ryy	.	.	4BB	4G	4d	4g
=30	=30	=30	=30	=30	=30	=30	=30	=30	=30	=30	=30	=30
2C	.	2g	2C	2G	2g	2ryy	2e\	1r	2C	2G	2e	2g
*	*	*	*v	*v	*	*	*	*	*	*	*	*
2BB	6	2g	2BB	2g	2B	2d\	.	2BB	2B	2d	2g
=31	=31	=31	=31	=31	=31	=31	=31	=31	=31	=31	=31
*	*	*	*	*	*	*	*	*^	*	*	*
2FF#	6	2a	2FF#	2a	4A	2d\	1r	2F#	2FF#	(4A	2d	2a
2GG	5	2g	2GG	2g	2B	2d\	.	2G	2GG	2B	2d	2g
=32	=32	=32	=32	=32	=32	=32	=32	=32	=32	=32	=32	=32
2DD	.	2a	2DD	2a	2A	2f#\	2d\	2D	2DD	2A	2f#	2a
*	*	*	*	*	*	*v	*v	*	*	*	*	*
2D	.	2a	2D	2a	2d	2f#\	2D	2D	2d	2f#	2a
=33	=33	=33	=33	=33	=33	=33	=33	=33	=33	=33	=33
2GG	.	2b	2GG	2b	2d	2g\	2GG	1r	2d	2g	2b
2G	.	2b	2G	2b	2d	2g\	2G	.	2d	2g	2b
=34	=34	=34	=34	=34	=34	=34	=34	=34	=34	=34	=34
2BB	6	2b	2BB	2b	2d	2g\	2BB	1r	2d	2g	2b
2C	6	4a	2C	4a	2c	2e\	4C	.	4c	4e	4a
.	.	4a	.	4a	.	.	4C	.	4c	4e	4a
*	*	*	*	*	*v	*v	*	*	*	*	*
=35	=35	=35	=35	=35	=35	=35	=35	=35	=35	=35
*	*	*	*^	*	*	*	*	*	*	*
2D	6 5 n	2a	2D	1B	2a	2fn	2D	1r	2B	2fn	2a
2E	#	2g#X	2E	.	2g#X	2e	2E	.	2B	2e	2g#X
*	*	*	*v	*v	*	*	*	*	*	*	*
=36	=36	=36	=36	=36	=36	=36	=36	=36	=36	=36
*	*	*	*	*	*^	*	*	*	*	*
1AA	.	1a	1AA	1a	1c	1e\	1AA	1r	1c	1e	1a
*	*	*	*	*	*v	*v	*	*	*	*	*
=37	=37	=37	=37	=37	=37	=37	=37	=37	=37	=37
*	*	*	*^	*	*	*	*	*	*	*
2E	.	2g	2E	2B	2g	2e	2E	1r	2B	2e	2g
2D	2	4g	2D	2B	4g	2e	4D	.	4B	4e	4g
.	.	4g	.	.	4g	.	4D	.	4B	4e	4g
=38	=38	=38	=38	=38	=38	=38	=38	=38	=38	=38	=38
2C	.	2g	2C	2c	2g	2e	2C	1r	2c	2e	2g
2BB	6	2g	2BB	[2G	2g	2d	2BB	.	[2G	2d	2g
=39	=39	=39	=39	=39	=39	=39	=39	=39	=39	=39	=39
2AA	7	2a	2AA	4G]	2a	2c	2AA	1r	(4G]	2c	2a
2BB	6	2g	2BB	[2G	2g	2d	2BB	.	[2G	2d	2g
=40	=40	=40	=40	=40	=40	=40	=40	=40	=40	=40	=40
2C	6 5	2a	2C	2G]	2a	2e	2C	1r	2G]	2e	2a
2D	.	2a	2D	2F#	2a	2d	2D	.	2F#	2d	2a
=41	=41	=41	=41	=41	=41	=41	=41	=41	=41	=41	=41
*	*	*	*	*	*^	*^	*	*	*	*	*
2GG	.	2b	2GG	2G	2b	2ryy	2g\	2d\	2GG	1r	2G	2d	2b
*	*	*	*v	*v	*	*	*	*	*	*	*	*	*
*	*	*	*	*	*	*v	*v	*	*	*	*	*
2G	.	2b	2G	2b	2d	2g\	2G	.	2G	2d	2b
=42	=42	=42	=42	=42	=42	=42	=42	=42	=42	=42	=42
2E	#	2b	2E	2b	2e	2g#X\	2E	1r	2G#X	2e	2b
2C	6	4a	2C	4a	2e	2e/	4C	.	4A	4e	4a
.	.	4a	.	4a	.	.	4C	.	4A	4e	4a
=43	=43	=43	=43	=43	=43	=43	=43	=43	=43	=43	=43
2BB	7	2a	2BB	2a	2d	2fn\	2BB	1r	2d	2fn	2a
*	*	*	*^	*	*	*	*	*	*	*	*
2E	#	2g#X	2E	2B	2g#X	2ryy	2e\	2E	.	2B	2e	2g#X
*	*	*	*v	*v	*	*	*	*	*	*	*	*
=44	=44	=44	=44	=44	=44	=44	=44	=44	=44	=44	=44
1AA	.	1a	1AA	1a	1c	1e\	1AA	1r	1c	1e	1a
=45||	=45||	=45||	=45||	=45||	=45||	=45||	=45||	=45||	=45||	=45||	=45||
*	*	*	*^	*	*	*	*	*	*	*	*
2r	.	2r	2r	2r	2r	2ryy	2r	2r	1r	2r	2r	2r
*	*	*	*v	*v	*	*	*	*	*	*	*	*
2BB	6	2g	2BB	2g	2d	2d/	2BB	.	2d	2d	2g
=46	=46	=46	=46	=46	=46	=46	=46	=46	=46	=46	=46
2C	.	2g	2C	2g	2c	2e\	2C	1r	2c	2e	2g
*	*	*	*^	*	*	*	*	*	*	*	*
2BB	6	2g	2BB	[2G	2g	2%9ryy	2d\	2BB	.	2d	[2g	2g
*	*	*	*	*	*	*v	*v	*	*	*	*	*
=47	=47	=47	=47	=47	=47	=47	=47	=47	=47	=47	=47
2AA	7	1a	2AA	2G]	1a	2c	(2AA	1r	(2c	(2g]	1a
2D	.	.	2D	2F#	.	2d	2D)	.	2d)	2f#)	.
=48	=48	=48	=48	=48	=48	=48	=48	=48	=48	=48	=48
2GG	.	2b	2GG	2G	2b	2d	2GG	1r	2d	2g	2b
2E	.	4b	2E	2G	4b	2e	4E	.	4e	4g	4b
.	.	4b	.	.	4b	.	4E	.	4e	4g	4b
=49	=49	=49	=49	=49	=49	=49	=49	=49	=49	=49	=49
2D	4	2b	2D	2G#X	2b	1e	2D	1r	2e	2g#X	2b
2C	6	2a	2C	2A	2a	.	2C	.	2e	2a	2a
=50	=50	=50	=50	=50	=50	=50	=50	=50	=50	=50	=50
2D	6 5 n	2a	2D	1B	2a	2fn	2D	1r	2B	2fn	2a
2E	#	2g#X	2E	.	2g#X	2e	2E	.	2B	2e	2g#X
*	*	*	*v	*v	*	*	*	*	*	*	*
=51	=51	=51	=51	=51	=51	=51	=51	=51	=51	=51
*	*	*	*	*	*^	*	*	*	*	*
2AA	.	2a	2AA	2a	2c	2e\	2AA	1r	2c	2e	2a
2BB	6	2gni	2BB	2gni	2d	2d/	2BB	.	2B	2d	2gni
*	*	*	*	*	*v	*v	*	*	*	*	*
=52	=52	=52	=52	=52	=52	=52	=52	=52	=52	=52
*	*	*	*^	*	*	*	*	*	*	*
2E	.	2g	2E	2B	2g	2e	2E	1r	2B	2e	2g
2D	2	2g	2D	2B	2g	2e	2D	.	2B	2e	2g
=53	=53	=53	=53	=53	=53	=53	=53	=53	=53	=53	=53
2C	6	1a	2C	2c	1a	2e	(2C	1r	(2A	(2e	1a
2D	.	.	2D	2F#	.	2d	2D)	.	2d)	2f#)	.
=54	=54	=54	=54	=54	=54	=54	=54	=54	=54	=54	=54
2GG	.	2b	2GG	2G	2b	2d	2GG	1r	2d	2g	2b
2G	.	4b	2G	[2d	4b	2g	4G	.	4d	4g	4b
.	.	4b	.	.	4b	.	4G	.	4d	4g	4b
=55	=55	=55	=55	=55	=55	=55	=55	=55	=55	=55	=55
2E	7 #	2b	2E	2d]	2b	2g#X	2E	1r	2d	2g#X	2b
2Fn	.	2a	2Fn	2c	2a	2a	2Fn	.	2c	2a	2a
=56	=56	=56	=56	=56	=56	=56	=56	=56	=56	=56	=56
2D	6 5 n	2a	2D	1B	2a	2fn	2D	1r	2B	2fn	2a
2E	#	2g#X	2E	.	2g#X	2e	2E	.	2B	2e	2g#X
*	*	*	*v	*v	*	*	*	*	*	*	*
=57	=57	=57	=57	=57	=57	=57	=57	=57	=57	=57
*	*	*	*	*	*^	*	*	*	*	*
1AA	.	1a	1AA	1a	1c	1e\	1AA	1r	1c	1e	1a
=58||	=58||	=58||	=58||	=58||	=58||	=58||	=58||	=58||	=58||	=58||	=58||
*	*	*	*^	*	*	*	*	*	*	*	*
2r	.	2r	2r	2r	2r	2ryy	2r	2r	1r	2r	2r	2r
*	*	*	*v	*v	*	*	*	*	*	*	*	*
2BB	6	2g	2BB	2g	2d	2d/	2BB	.	2G	2d	2g
=59	=59	=59	=59	=59	=59	=59	=59	=59	=59	=59	=59
2C	.	2g	2C	2g	2c	2e\	2C	1r	2G	(2e	2g
*	*	*	*^	*	*	*	*	*	*	*	*
2BB	6	2g	2BB	[2G	2g	1.ryy	2d\	2BB	.	[2G	2d)	2g
*	*	*	*	*	*	*v	*v	*	*	*	*	*
=60	=60	=60	=60	=60	=60	=60	=60	=60	=60	=60	=60
2C	6 5	1a	2C	2G]	1a	2e	(2C	1r	(2G]	2e	1a
2D	.	.	2D	2F#	.	2d	2D)	.	2F#)	2d	.
=61	=61	=61	=61	=61	=61	=61	=61	=61	=61	=61	=61
*	*	*	*	*	*	*^	*	*	*	*	*
2GG	.	2b	2GG	2G	2b	2ryy	2d\	2GG	1r	2G	2d	2b
*	*	*	*v	*v	*	*	*	*	*	*	*	*
2GG	.	4b	2GG	4b	2d	2g\	4GG	.	4d	4g	4b
.	.	4b	.	4b	.	.	4GG	.	4d	4g	4b
=62	=62	=62	=62	=62	=62	=62	=62	=62	=62	=62	=62
2BB	6	2b	2BB	2b	2d	2g\	2BB	1r	2d	2g	2b
2C	6	2a	2C	2a	2c	2e\	2C	.	2c	2e	2a
*	*	*	*	*	*v	*v	*	*	*	*	*
=63	=63	=63	=63	=63	=63	=63	=63	=63	=63	=63
*	*	*	*^	*	*	*	*	*	*	*
2D	6 5 n	2a	2D	1B	2a	2fn	2D	1r	2B	2fn	2a
2E	#	2g#X	2E	.	2g#X	2e	2E	.	2B	2e	2g#X
*	*	*	*v	*v	*	*	*	*	*	*	*
=64	=64	=64	=64	=64	=64	=64	=64	=64	=64	=64
*	*	*	*	*	*^	*	*	*	*	*
2AA	.	2a	2AA	2a	2c	2e\	2AA	1r	2c	2e	2a
2BB	6	2gni	2BB	2gni	2B	2d\	2BB	.	2B	2d	2gni
*	*	*	*	*	*v	*v	*	*	*	*	*
=65	=65	=65	=65	=65	=65	=65	=65	=65	=65	=65
*	*	*	*^	*	*	*	*	*	*	*
2E	.	2g	2E	2B	2g	2e	2E	1r	2B	2e	2g
2D	2	2g	2D	2B	2g	2e	2D	.	2B	2e	2g
=66	=66	=66	=66	=66	=66	=66	=66	=66	=66	=66	=66
*	*	*	*	*	*	*^	*	*	*	*	*
2C	6	2a	2C	2A	2a	2ryy	2e\	2C	1r	2A	2e	2a
*	*	*	*v	*v	*	*	*	*	*	*	*	*
2D	.	2a	2D	2a	2d	2f#\	2D	.	2d	2f#	2a
=67	=67	=67	=67	=67	=67	=67	=67	=67	=67	=67	=67
2GG	.	2b	2GG	2b	2d	2g\	2GG	1r	2d	2g	2b
2G	.	4b	2G	4b	2d	2g\	4G	.	4d	4g	4b
.	.	4b	.	4b	.	.	4G	.	4d	4g	4b
=68	=68	=68	=68	=68	=68	=68	=68	=68	=68	=68	=68
2E	8 #	2b	2E	2b	4e	2g#X\	2E	1r	(4e	2g#X	2b
2Fn	7	2a	2Fn	2a	2c	2a\	2Fn	.	2c	2a	2a
=69	=69	=69	=69	=69	=69	=69	=69	=69	=69	=69	=69
2BB	7	2a	2BB	2a	2d	2fn\	2BB	1r	2d	2fn	2a
*	*	*	*^	*	*	*	*	*	*	*	*
2E	#	2g#X	2E	2B	2g#X	2ryy	2e\	2E	.	2B	2e	2g#X
*	*	*	*v	*v	*	*	*	*	*	*	*	*
=70	=70	=70	=70	=70	=70	=70	=70	=70	=70	=70	=70
2AA	.	2a	2AA	2a	2c	2e\	2AA	1r	2c	2e	2a
*	*	*	*^	*	*	*	*	*	*	*	*
2E	.	2gni	2E	2B	2gni	2%5ryy	2e\	2E	.	2B	2e	2gni
*	*	*	*	*	*	*v	*v	*	*	*	*	*
=71	=71	=71	=71	=71	=71	=71	=71	=71	=71	=71	=71
2C	.	2g	2C	2c	2g	2e	2C	1r	2c	2e	2g
2BB	6	4g	2BB	[2G	4g	2d	4BB	.	4d	4g	4g
.	.	4g	.	.	4g	.	4BB	.	4d	4g	4g
=72	=72	=72	=72	=72	=72	=72	=72	=72	=72	=72	=72
2C	6 5	1a	2C	2G]	1a	2e	(2C	1r	(2e	(2g	1a
2D	.	.	2D	2F#	.	2d	2D)	.	2d)	2f#)	.
=73	=73	=73	=73	=73	=73	=73	=73	=73	=73	=73	=73
*	*	*	*	*	*	*^	*	*	*	*	*
2GG	.	2b	2GG	2G	2b	2ryy	2d\	2GG	1r	2d	2g	2b
*	*	*	*v	*v	*	*	*	*	*	*	*	*
2BB	6	4b	2BB	4b	2d	2g\	4BB	.	4d	4g	4b
.	.	4b	.	4b	.	.	4BB	.	4d	4g	4b
=74	=74	=74	=74	=74	=74	=74	=74	=74	=74	=74	=74
2D	6 4	2b	2D	2b	2d	2g\	2D	1r	2d	2g	2b
2D	5 n	2a	2D	2a	2d	2fn\	2D	.	2d	2fn	2a
*	*	*	*	*	*v	*v	*	*	*	*	*
=75	=75	=75	=75	=75	=75	=75	=75	=75	=75	=75
*	*	*	*^	*	*	*	*	*	*	*
1E	6 4	2a	1E	2c	2a	1e	2E	1r	2c	2e	2a
.	5 #	2g#X	.	2B	2g#X	.	2E	.	2B	2e	2g#X
*	*	*	*v	*v	*	*	*	*	*	*	*
=76	=76	=76	=76	=76	=76	=76	=76	=76	=76	=76
*	*	*	*	*	*^	*	*	*	*	*
2AA	.	2a	2AA	2a	2c	2e\	2AA	1r	2c	2e	2a
2C	.	4gni	2C	4gni	2c	2e\	4C	.	4c	4e	4gni
.	.	4g	.	4g	.	.	4C	.	4c	4e	4g
*	*	*	*	*	*v	*v	*	*	*	*	*
=77	=77	=77	=77	=77	=77	=77	=77	=77	=77	=77
*	*	*	*^	*	*	*	*	*	*	*
2BB	6	2g	2BB	2G	2g	2d	2BB	1r	2G	2d	2g
2E	.	2g	2E	2B	2g	2e	2E	.	2B	2e	2g
=78	=78	=78	=78	=78	=78	=78	=78	=78	=78	=78	=78
2C	6	2a	2C	2A	2a	2e	2C	1r	2A	2e	2a
2BB	6	4g	2BB	2B	4g	2d	4BB	.	4B	4d	4g
.	.	4g	.	.	4g	.	4BB	.	4B	4d	4g
=79	=79	=79	=79	=79	=79	=79	=79	=79	=79	=79	=79
2E	.	2g	2E	2B	2g	2e	2E	1r	2B	2e	2g
2D	6 4 2	2g	2D	2B	2g	2e	2D	.	2B	2e	2g
=80	=80	=80	=80	=80	=80	=80	=80	=80	=80	=80	=80
2C	6	1a	2C	2c	1a	2e	(2C	1r	(2A	(2e	1a
*	*	*	*	*	*	*^	*	*	*	*	*
2D	.	.	2D	2A	.	2f#	2d\	2D)	.	2d)	2f#)	.
=81	=81	=81	=81	=81	=81	=81	=81	=81	=81	=81	=81	=81
*	*	*	*	*	*	*	*^	*	*	*	*	*
2GG	.	2b	2GG	2G	2b	2ryy	2g/	2d\	2GG	1r	2d	2g	2b
*	*	*	*v	*v	*	*	*	*	*	*	*	*	*
*	*	*	*	*	*	*v	*v	*	*	*	*	*
2G	.	4b	2G	4b	2d	2g\	4G	.	4d	4g	4b
.	.	4b	.	4b	.	.	4G	.	4d	4g	4b
=82	=82	=82	=82	=82	=82	=82	=82	=82	=82	=82	=82
2BB	6	2b	2BB	2b	2d	2g\	2BB	1r	2d	2g	2b
2C	6	2a	2C	2a	2c	2e\	2C	.	2c	2e	2a
*	*	*	*	*	*v	*v	*	*	*	*	*
=83	=83	=83	=83	=83	=83	=83	=83	=83	=83	=83
*	*	*	*^	*	*	*	*	*	*	*
2D	6 5 n	2a	2D	1B	2a	2fn	2D	1r	2B	2fn	2a
2E	#	2g#X	2E	.	2g#X	2e	2E	.	2B	2e	2g#X
*	*	*	*v	*v	*	*	*	*	*	*	*
=84	=84	=84	=84	=84	=84	=84	=84	=84	=84	=84
*	*	*	*	*	*^	*	*	*	*	*
2AA	.	2a	2AA	2a	2c	2e\	2AA	1r	2c	2e	2a
2BB	6	2gni	2BB	2gni	2d	2d/	2BB	.	2d	2d	2gni
=85	=85	=85	=85	=85	=85	=85	=85	=85	=85	=85	=85
2C	.	2g	2C	2g	2c	2e\	2C	1r	2c	2e	2g
2BB	6	2g	2BB	2g	2d	2d/	2BB	.	2G	2d	2g
=86	=86	=86	=86	=86	=86	=86	=86	=86	=86	=86	=86
2FF#	5	2a	2FF#	2a	2c	2d\	2F#	2FF#	2c	2d	2a
2GG	.	2g	2GG	2g	2B	2d\	2G	2GG	2B	2d	2g
*	*	*	*	*	*v	*v	*	*	*	*	*
=87	=87	=87	=87	=87	=87	=87	=87	=87	=87	=87
*	*	*	*^	*	*	*	*	*	*	*
2E	.	2g	2E	2B	2g	2e	2E	1r	2B	2e	2g
2D	2	4g	2D	2B	4g	2e	4D	.	4B	4e	4g
.	.	4g	.	.	4g	.	4D	.	4B	4e	4g
=88	=88	=88	=88	=88	=88	=88	=88	=88	=88	=88	=88
2C	6	1a	2C	1A	1a	2e	(2C	1r	(2A	(2e	1a
2D	.	.	2D	.	.	2f#	2D)	.	2d)	2f#)	.
=89	=89	=89	=89	=89	=89	=89	=89	=89	=89	=89	=89
*	*	*	*	*	*^	*^	*	*	*	*	*
2GG	.	2b	2GG	2G	2b	2ryy	2g/	2d\	2GG	1r	2d	2g	2b
*	*	*	*v	*v	*	*	*	*	*	*	*	*	*
*	*	*	*	*	*	*v	*v	*	*	*	*	*
2E	.	4b	2E	4b	2e	2g\	4E	.	4e	4g	4b
.	.	4b	.	4b	.	.	4E	.	4e	4g	4b
=90	=90	=90	=90	=90	=90	=90	=90	=90	=90	=90	=90
2D	4	2b	2D	2b	2e	2g#X\	2D	1r	2e	2g#X	2b
2C	6	2a	2C	2a	2e	2a\	2C	.	2e	2a	2a
*	*	*	*	*	*v	*v	*	*	*	*	*
=91	=91	=91	=91	=91	=91	=91	=91	=91	=91	=91
*	*	*	*^	*	*	*	*	*	*	*
2D	6 5 n	2a	2D	1B	2a	2fn	2D	1r	2B	2fn	2a
2E	#	2g#X	2E	.	2g#X	2e	2E	.	2B	2e	2g#X
*	*	*	*v	*v	*	*	*	*	*	*	*
=92	=92	=92	=92	=92	=92	=92	=92	=92	=92	=92
*	*	*	*	*	*^	*	*	*	*	*
2AA	.	2a	2AA	2a	2c	2e\	2AA	1r	2c	2e	2a
2C	.	2gni	2C	2gni	2c	2e\	2C	.	2c	2e	2gni
*	*	*	*	*	*v	*v	*	*	*	*	*
=93	=93	=93	=93	=93	=93	=93	=93	=93	=93	=93
*	*	*	*^	*	*	*	*	*	*	*
2BB	6	2g	2BB	2G	2g	2d	2BB	1r	2d	2d	2g
2E	.	2g	2E	[2G	2g	2B	2E	.	2B	[2g	2g
=94	=94	=94	=94	=94	=94	=94	=94	=94	=94	=94	=94
2C	6 5	2a	2C	2G]	2a	2e	2C	1r	2e	2g]	2a
2D	.	2a	2D	2F#	2a	2d	2D	.	2d	2f#	2a
=95	=95	=95	=95	=95	=95	=95	=95	=95	=95	=95	=95
*	*	*	*	*	*	*^	*	*	*	*	*
2GG	.	2b	2GG	2G	2b	2ryy	2d\	2GG	1r	2d	2g	2b
*	*	*	*v	*v	*	*	*	*	*	*	*	*
2GG	.	4b	2GG	4b	[2d	2g\	4GG	.	4d	4g	4b
.	.	4b	.	4b	.	.	4GG	.	4d	4g	4b
=96	=96	=96	=96	=96	=96	=96	=96	=96	=96	=96	=96
2GG#X	6 5	2b	2GG#X	2b	2d]	2e\	2GG#X	1r	2d	2e	2b
2AA	.	2a	2AA	2a	2c	2e\	2AA	.	2c	2e	2a
*	*	*	*	*	*v	*v	*	*	*	*	*
=97	=97	=97	=97	=97	=97	=97	=97	=97	=97	=97
*	*	*	*^	*	*	*	*	*	*	*
1E	6 4	2a	1E	2c	2a	1e	2E	1r	2c	2e	2a
.	5 #	2g#X	.	2B	2g#X	.	2E	.	2B	2e	2g#X
*	*	*	*v	*v	*	*	*	*	*	*	*
=98	=98	=98	=98	=98	=98	=98	=98	=98	=98	=98
*	*	*	*	*	*^	*	*	*	*	*
2AA	.	2a	2AA	2a	2c	2e\	2AA	1r	2c	2e	2a
2BB	6	2gni	2BB	2gni	2d	2d/	2BB	.	2d	2d	2gni
=99	=99	=99	=99	=99	=99	=99	=99	=99	=99	=99	=99
2C	.	2g	2C	2g	2c	2e\	2C	1r	2c	2e	2g
*	*	*	*^	*	*	*	*	*	*	*	*
2BB	6	4g	2BB	[2G	4g	4ryy	2d\	4BB	.	4d	4g	4g
.	.	4g	.	.	4g	4%5ryy	.	4BB	.	4d	4g	4g
*	*	*	*	*	*	*v	*v	*	*	*	*	*
=100	=100	=100	=100	=100	=100	=100	=100	=100	=100	=100	=100
2AA	7	1a	2AA	2G]	1a	2c	(2AA	1r	(2c	(2g	1a
2D	.	.	2D	2F#	.	2d	2D)	.	2d)	2f#)	.
=101	=101	=101	=101	=101	=101	=101	=101	=101	=101	=101	=101
*	*	*	*	*	*	*^	*	*	*	*	*
2GG	.	2b	2GG	2F#	2b	2ryy	2d\	2GG	1r	2d	2g	2b
*	*	*	*v	*v	*	*	*	*	*	*	*	*
2G	.	4b	2G	4b	2d	2g\	4G	.	4d	4g	4b
.	.	4b	.	4b	.	.	4G	.	4d	4g	4b
=102	=102	=102	=102	=102	=102	=102	=102	=102	=102	=102	=102
2E	8 #	2b	2E	2b	4e	2g#X\	2E	1r	(4e	2g#X	2b
2Fn	7	2a	2Fn	2a	2c	2a\	2Fn	.	2c	2a	2a
*	*	*	*	*	*v	*v	*	*	*	*	*
=103	=103	=103	=103	=103	=103	=103	=103	=103	=103	=103
*	*	*	*^	*	*	*	*	*	*	*
2D	6 5 n	2a	2D	1B	2a	2fn	2D	1r	2B	2fn	2a
2E	#	2g#X	2E	.	2g#X	2e	2E	.	2B	2e	2g#X
*	*	*	*v	*v	*	*	*	*	*	*	*
=104	=104	=104	=104	=104	=104	=104	=104	=104	=104	=104
*	*	*	*	*	*^	*	*	*	*	*
2AA	.	2a	2AA	2a	2c	2e\	2AA	1r	2c	2e	2a
*	*	*	*^	*	*	*	*	*	*	*	*
2E	.	4gni	2E	2B	4gni	4ryy	2e\	4E	.	4B	4e	4gni
.	.	4g	.	.	4g	4%9ryy	.	4E	.	4B	4e	4g
*	*	*	*	*	*	*v	*v	*	*	*	*	*
=105	=105	=105	=105	=105	=105	=105	=105	=105	=105	=105	=105
2C	.	2g	2C	2c	2g	2e	2C	1r	2c	2e	2g
2BB	6	4g	2BB	[2G	4g	2d	4BB	.	4d	4g	4g
.	.	4g	.	.	4g	.	4BB	.	4d	4g	4g
=106	=106	=106	=106	=106	=106	=106	=106	=106	=106	=106	=106
2C	6 5	1a	2C	2G]	1a	2e	(2C	1r	(2e	(2g	1a
2D	.	.	2D	2F#	.	2d	2D)	.	2d)	2f#)	.
=107	=107	=107	=107	=107	=107	=107	=107	=107	=107	=107	=107
*	*	*	*	*	*	*^	*	*	*	*	*
2GG	.	2b	2GG	2G	2b	2ryy	2d\	2GG	1r	2d	2g	2b
*	*	*	*v	*v	*	*	*	*	*	*	*	*
2G	.	4b	2G	4b	2d	2g\	4G	.	4d	4g	4b
.	.	4b	.	4b	.	.	4G	.	4d	4g	4b
=108	=108	=108	=108	=108	=108	=108	=108	=108	=108	=108	=108
2BB	6	2b	2BB	2b	2d	2g\	2BB	1r	2d	2g	2b
2C	6	2a	2C	2a	2c	2e\	2C	.	2c	2e	2a
*	*	*	*	*	*v	*v	*	*	*	*	*
=109	=109	=109	=109	=109	=109	=109	=109	=109	=109	=109
*	*	*	*^	*	*	*	*	*	*	*
2D	6 5 n	2a	2D	1B	2a	2fn	2D	1r	2B	2fn	2a
2E	#	2g#X	2E	.	2g#X	2e	2E	.	2B	2e	2g#X
*	*	*	*v	*v	*	*	*	*	*	*	*
=110	=110	=110	=110	=110	=110	=110	=110	=110	=110	=110
*	*	*	*	*	*^	*	*	*	*	*
2AA	.	2a	2AA	2a	2c	2e\	2AA	1r	2c	2e	2a
2BB	6	4gni	2BB	4gni	2d	4gni\	4BB	.	4G	4d	4gni
.	.	4g	.	4g	.	4g\	4BB	.	4G	4d	4g
=111	=111	=111	=111	=111	=111	=111	=111	=111	=111	=111	=111
2C	6 5	2a	2C	2a	2e	2g\	2C	1r	2G	2e	2a
2D	.	4a	2D	4a	2d	2f#\	4D	.	4F#	4d	4a
.	.	4a	.	4a	.	.	4D	.	4F#	4d	4a
=112	=112	=112	=112	=112	=112	=112	=112	=112	=112	=112	=112
2GG	.	2b	2GG	2b	2d	2g\	2GG	1r	2G	2d	2b
2E	.	4b	2E	4b	2e	2g\	4E	.	4G	4e	4b
.	.	4b	.	4b	.	.	4E	.	4G	4e	4b
=113	=113	=113	=113	=113	=113	=113	=113	=113	=113	=113	=113
2D	4	2b	2D	2b	2e	2g#X\	2D	1r	2G#X	2e	2b
2C	6	2a	2C	2a	2e	2a\	2C	.	2A	2e	2a
=114	=114	=114	=114	=114	=114	=114	=114	=114	=114	=114	=114
2BB	7	2a	2BB	2a	2d	2fn\	2BB	1r	2d	2fn	2a
*	*	*	*^	*	*	*	*	*	*	*	*
2E	#	2g#X	2E	2B	2g#X	2ryy	2e\	2E	.	2B	2e	2g#X
=115	=115	=115	=115	=115	=115	=115	=115	=115	=115	=115	=115	=115
1AA	.	1a	1AA	1A	1a	1e	1c\	1AA	1r	1c	1e	1a
=116||	=116||	=116||	=116||	=116||	=116||	=116||	=116||	=116||	=116||	=116||	=116||	=116||
*	*	*	*	*	*	*	*^	*	*	*	*	*
2r	.	2r	2r	2r	2r	2ryy	2r	1r	2r	1r	2r	2r	2r
*	*	*	*v	*v	*	*	*	*	*	*	*	*	*
2C	5	4g	2C	4g	2c	2e\	.	4C	.	4c	4e	4g
.	.	4g	.	4g	.	.	.	4C	.	4c	4e	4g
*	*	*	*	*	*	*v	*v	*	*	*	*	*
=117	=117	=117	=117	=117	=117	=117	=117	=117	=117	=117	=117
*	*	*	*^	*	*	*	*	*	*	*	*
2BB	6	2g	2BB	2G	2g	2d	1r	2BB	1r	2d	2d	2g
2E	.	4g	2E	[2G	4g	2B	.	4E	.	4B	4g	4g
.	.	4g	.	.	4g	.	.	4E	.	4B	4g	4g
=118	=118	=118	=118	=118	=118	=118	=118	=118	=118	=118	=118	=118
2C	6 5	2a	2C	2G]	2a	2e	1r	2C	1r	2e	2g	2a
2D	.	2a	2D	2F#	2a	2d	.	2D	.	2d	2f#	2a
=119	=119	=119	=119	=119	=119	=119	=119	=119	=119	=119	=119	=119
*	*	*	*	*	*	*	*^	*	*	*	*	*
2GG	.	2b	2GG	2G	2b	2ryy	2g\	2d\	2GG	1r	2d	2g	2b
*	*	*	*v	*v	*	*	*	*	*	*	*	*	*
*	*	*	*	*	*	*v	*v	*	*	*	*	*
2Fn	2	4b	2Fn	4b	2d	2g#X\	4Fn	.	4d	4g#X	4b
.	.	4b	.	4b	.	.	4F	.	4d	4g#	4b
=120	=120	=120	=120	=120	=120	=120	=120	=120	=120	=120	=120
2E	7 #	2b	2E	2b	2d	2g#X\	2E	1r	2d	2g#X	2b
2E	6 4	2a	2E	2a	2c	2e\	2E	.	2c	2a	2a
=121	=121	=121	=121	=121	=121	=121	=121	=121	=121	=121	=121
1EE	5 4	2a	1EE	2a	1B	1e\	2E	2EE	2B	2e	2a
.	#	2g#X	.	2g#X	.	.	2E	2EE	2B	2e	2g#X
*	*	*	*	*	*	*	*v	*v	*	*	*
=122	=122	=122	=122	=122	=122	=122	=122	=122	=122	=122
2AA	.	2a	2AA	2a	2c	2e\	2AA	2c	2e	2a
2BB	6	4gni	2BB	4gni	2d	2d/	4BB	4B	4d	4gni
.	.	4g	.	4g	.	.	4BB	4B	4d	4g
=123	=123	=123	=123	=123	=123	=123	=123	=123	=123	=123
*	*	*	*^	*	*	*	*	*	*	*
2C	6	2a	2C	2A	2a	2ryy	2e\	2C	2A	2e	2a
*	*	*	*v	*v	*	*	*	*	*	*	*
2D	.	4a	2D	4a	2d	2f#\	4D	4d	4f#	4a
.	.	4a	.	4a	.	.	4D	4d	4f#	4a
=124	=124	=124	=124	=124	=124	=124	=124	=124	=124	=124
2GG	.	2b	2GG	2b	2d	2g\	2GG	2d	2g	2b
2E	.	4b	2E	4b	2e	2g\	4E	4e	4g	4b
.	.	4b	.	4b	.	.	4E	4e	4g	4b
=125	=125	=125	=125	=125	=125	=125	=125	=125	=125	=125
2BB	6	2b	2BB	2b	2d	2g\	2BB	2d	2g	2b
2C	6	2a	2C	2a	2c	2e\	2C	2c	2e	2a
*	*	*	*	*	*v	*v	*	*	*	*
=126	=126	=126	=126	=126	=126	=126	=126	=126	=126
*	*	*	*^	*	*	*	*	*	*
2D	6 5 n	2a	2D	1B	2a	2fn	2D	2B	2fn	2a
2E	#	2g#X	2E	.	2g#X	2e	2E	2B	2e	2g#X
=127	=127	=127	=127	=127	=127	=127	=127	=127	=127	=127
*	*	*	*	*	*^	*^	*	*	*	*
2AA	.	2a	2AA	2A	2a	2ryy	2e\	2c\	2AA	2c	2e	2a
*	*	*	*v	*v	*	*	*	*	*	*	*	*
*	*	*	*	*	*	*v	*v	*	*	*	*
2E	.	4gni	2E	4gni	2B	2g\	4E	4B	4g	4gni
.	.	4g	.	4g	.	.	4E	4B	4g	4g
=128	=128	=128	=128	=128	=128	=128	=128	=128	=128	=128
2D	4	2a	2D	2a	2d	2g\	2D	2d	2g	2a
2D	3	4a	2D	4a	2d	2f#\	4D	4d	4f#	4a
.	.	4a	.	4a	.	.	4D	4d	4f#	4a
=129	=129	=129	=129	=129	=129	=129	=129	=129	=129	=129
2GG	.	2b	2GG	2b	2d	2g\	2GG	2d	2g	2b
2G	.	4b	2G	4b	2d	2g\	4G	4d	4g	4b
.	.	4b	.	4b	.	.	4G	4d	4g	4b
=130	=130	=130	=130	=130	=130	=130	=130	=130	=130	=130
2E	.	2b	2E	2b	2e	2g\	2E	2e	2g	2b
2C	6	2a	2C	2a	2e	2e/	2C	2e	2e	2a
*	*	*	*	*	*v	*v	*	*	*	*
=131	=131	=131	=131	=131	=131	=131	=131	=131	=131
*	*	*	*^	*	*	*	*	*	*
2D	6 5 n	2a	2D	1B	2a	2fn	2D	2B	2fn	2a
2E	#	2g#X	2E	.	2g#X	2e	2E	2B	2e	2g#X
*	*	*	*v	*v	*	*	*	*	*	*
=132	=132	=132	=132	=132	=132	=132	=132	=132	=132
*	*	*	*	*	*^	*	*	*	*
2AA	.	2a	2AA	2a	2c	2e\	2AA	2c	2e	2a
2C	.	4gni	2C	4gni	2c	2e\	4C	4c	4e	4gni
.	.	4g	.	4g	.	.	4C	4c	4e	4g
*	*	*	*	*	*v	*v	*	*	*	*
=133	=133	=133	=133	=133	=133	=133	=133	=133	=133
*	*	*	*^	*	*	*	*	*	*
2BB	6	2g	2BB	2G	2g	2d	2BB	2G	2d	2g
2E	.	4g	2E	[2G	4g	2B	4E	4B	4g	4g
.	.	4g	.	.	4g	.	4E	4B	4g	4g
=134	=134	=134	=134	=134	=134	=134	=134	=134	=134	=134
2C	6 5	2a	2C	2G]	2a	2e	2C	2e	2g	2a
2D	.	2a	2D	4F#	2a	2d	2D	2d	2f#	2a
.	.	.	.	4c	.	.	.	.	.	.
*	*	*	*v	*v	*	*	*	*	*	*
=135	=135	=135	=135	=135	=135	=135	=135	=135	=135
*	*	*	*	*	*^	*	*	*	*
2GG	.	2b	2GG	2b	2B	2d\	2GG	2d	2g	2b
2D#X	6	4b	2D#X	4b	2B	2f#\	4D#X	4B	4f#	4b
.	.	4b	.	4b	.	.	4D#	4B	4f#	4b
=136	=136	=136	=136	=136	=136	=136	=136	=136	=136	=136
2Dni	4	2b	2Dni	2b	2e	2g#X\	2Dni	2e	2g#X	2b
2C	6	2a	2C	2a	2e	2a\	2C	2e	2a	2a
=137	=137	=137	=137	=137	=137	=137	=137	=137	=137	=137
2BB	7	2a	2BB	2a	2d	2fn\	2BB	2d	2fn	2a
*	*	*	*^	*	*	*	*	*	*	*
2E	#	2g#X	2E	2B	2g#X	2ryy	2e\	2E	2B	2e	2g#X
*	*	*	*v	*v	*	*	*	*	*	*	*
=138	=138	=138	=138	=138	=138	=138	=138	=138	=138	=138
2AA	.	2a	2AA	2a	2c	2e\	2AA	2c	2e	2a
*	*	*	*^	*	*	*	*	*	*	*
2BB	6	4gni	2BB	2Gni	4gni	4ryy	2d\	4BB	4G	4d	4gni
.	.	4g	.	.	4g	4ryy	.	4BB	4G	4d	4g
=139	=139	=139	=139	=139	=139	=139	=139	=139	=139	=139	=139
2AA	7	2g	2AA	2A	2g	2ryy	2c\	2AA	2A	2c	2g
*	*	*	*v	*v	*	*	*	*	*	*	*
2GG	.	2g	2GG	2g	2B	2d\	2GG	2B	2d	2g
*	*	*	*	*	*v	*v	*	*	*	*
=140	=140	=140	=140	=140	=140	=140	=140	=140	=140
*	*	*	*^	*	*	*	*	*	*
2E	.	4g	2E	1B	4g	2e	4E	4B	4e	4g
.	.	4g	.	.	4g	.	4E	4B	4e	4g
2D#X	5	4a	2D#X	.	4a	2f#	4D#X	4B	4f#	4a
.	.	4a	.	.	4a	.	4D#	4B	4f#	4a
=141	=141	=141	=141	=141	=141	=141	=141	=141	=141	=141
2.E	.	2.g	2.E	2.B	2.g	2.e	2.E	2.B	2.e	2.g
4E	.	4g	4E	4G	4g	4B	4E	4B	4g	4g
=142	=142	=142	=142	=142	=142	=142	=142	=142	=142	=142
2C	6 5	2a	2C	2G	2a	2e	2C	2e	2g	2a
2D	.	2a	2D	2F#	2a	2d	2D	2d	2f#	2a
=143	=143	=143	=143	=143	=143	=143	=143	=143	=143	=143
*	*	*	*	*	*	*^	*	*	*	*
2GG	.	2b	2GG	2G	2b	2ryy	2d\	2GG	2d	2g	2b
*	*	*	*v	*v	*	*	*	*	*	*	*
2G	.	4b	2G	4b	2d	2g\	4G	4d	4g	4b
.	.	4b	.	4b	.	.	4G	4d	4g	4b
=144	=144	=144	=144	=144	=144	=144	=144	=144	=144	=144
2BB	6	2b	2BB	2b	2d	2g\	2BB	2d	2g	2b
2C	6	2a	2C	2a	2c	2e\	2C	2c	2e	2a
*	*	*	*	*	*v	*v	*	*	*	*
=145	=145	=145	=145	=145	=145	=145	=145	=145	=145
*	*	*	*^	*	*	*	*	*	*
2D	n	2a	2D	1B	2a	2fn	2D	2B	2fn	2a
2E	#	2g#X	2E	.	2g#X	2e	2E	2B	2e	2g#X
*	*	*	*v	*v	*	*	*	*	*	*
=146	=146	=146	=146	=146	=146	=146	=146	=146	=146
*	*	*	*	*	*^	*	*	*	*
2AA	.	2a	2AA	2a	2c	2e\	2AA	2c	2e	2a
2C	.	4gni	2C	4gni	2c	2e\	4C	4c	4e	4gni
.	.	4g	.	4g	.	.	4C	4c	4e	4g
*	*	*	*	*	*v	*v	*	*	*	*
=147	=147	=147	=147	=147	=147	=147	=147	=147	=147
*	*	*	*^	*	*	*	*	*	*
2BB	6	2g	2BB	2G	2g	2d	2BB	2d	2d	2g
2E	.	2g	2E	2B	2g	2e	2E	2B	2e	2g
=148	=148	=148	=148	=148	=148	=148	=148	=148	=148	=148
2C	6	1a	2C	1A	1a	2e	2C	(2A	(2e	1a
2D	.	.	2D	.	.	2f#	2D	2d)	2f#)	.
=149	=149	=149	=149	=149	=149	=149	=149	=149	=149	=149
*	*	*	*	*	*^	*^	*	*	*	*
2GG	.	2b	2GG	2G	2b	2ryy	2g\	2d\	2GG	2d	2g	2b
*	*	*	*v	*v	*	*	*	*	*	*	*	*
*	*	*	*	*	*	*v	*v	*	*	*	*
2E	.	4b	2E	4b	2e	2g\	4E	4e	4g	4b
.	.	4b	.	4b	.	.	4E	4e	4g	4b
=150	=150	=150	=150	=150	=150	=150	=150	=150	=150	=150
2BB	6	2b	2BB	2b	2d	2g\	2BB	2d	2g	2b
2Fn	6	2a	2Fn	2a	2d	2fn\	2Fn	2d	2fn	2a
*	*	*	*	*	*v	*v	*	*	*	*
=151	=151	=151	=151	=151	=151	=151	=151	=151	=151
*	*	*	*^	*	*	*	*	*	*
2D	6 5 n	2a	2D	1B	2a	2fn	2D	2B	2fn	2a
2E	#	2g#X	2E	.	2g#X	2e	2E	2B	2e	2g#X
=152	=152	=152	=152	=152	=152	=152	=152	=152	=152	=152
*	*	*	*	*	*	*^	*	*	*	*
2AA	.	2a	2AA	2A	2a	2e	2c\	2AA	2c	2e	2a
*	*	*	*	*	*	*v	*v	*	*	*	*
2E	.	4gni	2E	2B	4gni	2e	4E	4B	4e	4gni
.	.	4g	.	.	4g	.	4E	4B	4e	4g
=153	=153	=153	=153	=153	=153	=153	=153	=153	=153	=153
2D	6 4 2	2g	2D	2B	2g	2e	2D	2B	2e	2g
2C	.	4g	2C	[2G	4g	2e	4C	4c	4e	4g
.	.	4g	.	.	4g	.	4C	4e	4g	4g
=154	=154	=154	=154	=154	=154	=154	=154	=154	=154	=154
2C#X	5	2a	2C#X	2G]	2a	2e	2C#X	2e	2g	2a
2D	.	2a	2D	2F#	2a	2d	2D	2d	2f#	2a
=155	=155	=155	=155	=155	=155	=155	=155	=155	=155	=155
2GG	.	2b	2GG	2G	2b	2d	2GG	2d	2g	2b
2G	.	4b	2G	[2d	4b	2g	4G	4d	4g	4b
.	.	4b	.	.	4b	.	4G	4d	4g	4b
=156	=156	=156	=156	=156	=156	=156	=156	=156	=156	=156
2G#X	5	2b	2G#X	2d]	2b	1e	2G#X	2d	2e	2b
2A	.	2a	2A	2c	2a	.	2A	2c	2e	2a
=157	=157	=157	=157	=157	=157	=157	=157	=157	=157	=157
1E	6 4	2a	1E	2c	2a	1e	2E	2c	2e	2a
.	5 #	2g#X	.	2B	2g#X	.	2E	2B	2e	2g#X
=158	=158	=158	=158	=158	=158	=158	=158	=158	=158	=158
*	*	*	*	*	*	*^	*	*	*	*
1AA	.	1a	1AA	1A	1a	1e	1c\	1AA	1c	1e	1a
=159||	=159||	=159||	=159||	=159||	=159||	=159||	=159||	=159||	=159||	=159||	=159||
*	*	*	*	*	*	*	*^	*	*	*	*
2r	.	2r	2r	2r	2r	2ryy	2r	1r	2r	2r	2r	2r
*	*	*	*v	*v	*	*	*	*	*	*	*	*
2GG	.	2b	2GG	2b	2d	2g\	.	2GG	2d	2g	2b
=160	=160	=160	=160	=160	=160	=160	=160	=160	=160	=160	=160
2G	.	2b	2G	2b	2d	2g\	1r	2G	2d	2g	2b
2Fn	6 4 2	2b	2Fn	2b	2d	2g\	.	2Fn	2d	2g	2b
=161	=161	=161	=161	=161	=161	=161	=161	=161	=161	=161	=161
2E	.	2b	2E	2b	2e	2g\	1r	2E	2e	2g	2b
2D	6 4 2	4b	2D	4b	2e	2g\	.	4D	4e	4g	4b
.	.	4b	.	4b	.	.	.	4D	4e	4g	4b
=162	=162	=162	=162	=162	=162	=162	=162	=162	=162	=162	=162
2C	7 5	2b	2C	2b	2e	2g\	1r	2C	2e	2g	2b
2BB	6	4b	2BB	4b	2d	[2g\	.	4BB	4d	4g	4b
.	.	4b	.	4b	.	.	.	4BB	4d	4g	4b
=163	=163	=163	=163	=163	=163	=163	=163	=163	=163	=163	=163
2C	6 5	2a	2C	2a	2e	2g\]	1r	2C	2e	2g	2a
2D	.	2a	2D	2a	4d	2f#\	.	2D	(4d	2f#	2a
.	.	.	.	.	4c	.	.	.	4c)	.	.
=164	=164	=164	=164	=164	=164	=164	=164	=164	=164	=164	=164
2GG	.	2g	2GG	2g	2B	2d\	1r	2GG	2B	2g	2g
*	*	*	*^	*	*	*	*	*	*	*	*
2G	.	4g	2G	2B	4g	4ryy	2d\	.	4G	4B	4d	4g
.	.	4g	.	.	4g	4ryy	.	.	4G	4B	4d	4g
*	*	*	*	*	*	*	*v	*v	*	*	*	*
=165	=165	=165	=165	=165	=165	=165	=165	=165	=165	=165	=165
2E	.	2g	2E	2B	2g	1e	1r	2E	2B	2e	2g
2C	6	2a	2C	2c	2a	.	.	2C	2c	2e	2a
=166	=166	=166	=166	=166	=166	=166	=166	=166	=166	=166	=166
2D	6 5 n	2a	2D	1B	2a	2fn	1r	2D	2B	2fn	2a
2E	#	2g#X	2E	.	2g#X	2e	.	2E	2B	2e	2g#X
*	*	*	*v	*v	*	*	*	*	*	*	*
=167	=167	=167	=167	=167	=167	=167	=167	=167	=167	=167
*	*	*	*	*	*	*^	*	*	*	*
2AA	.	2a	2AA	2a	2c	2e\	1r	2AA	2c	2e	2a
2GGni	.	2b	2GGni	2b	2d	2gni\	.	2GG	2d	2g	2b
=168	=168	=168	=168	=168	=168	=168	=168	=168	=168	=168	=168
2E	.	2b	2E	2b	2e	2g\	1r	2E	2e	2g	2b
2G	.	2b	2G	2b	2d	2g\	.	2G	2d	2g	2b
=169	=169	=169	=169	=169	=169	=169	=169	=169	=169	=169	=169
2BB	6	2b	2BB	2b	2d	2g\	1r	2BB	2d	2g	2b
2G	.	2b	2G	2b	2d	2g\	.	2G	2d	2g	2b
=170	=170	=170	=170	=170	=170	=170	=170	=170	=170	=170	=170
2GG	.	2b	2GG	2b	2d	2g\	1r	2GG	2d	2g	2b
2BB	6	4b	2BB	4b	2d	2g\	.	4BB	4d	4g	4b
.	.	4b	.	4b	.	.	.	4BB	4d	4g	4b
=171	=171	=171	=171	=171	=171	=171	=171	=171	=171	=171	=171
2C	7 5	4b	2C	4b	2e	2g\	1r	4C	4e	4g	4b
.	.	4b	.	4b	.	.	.	4C	4e	4g	4b
2C#X	.	4b	2C#X	4b	2e	[2g\	.	4C#X	4e	4g	4b
.	.	4b	.	4b	.	.	.	4C#	4e	4g	4b
=172	=172	=172	=172	=172	=172	=172	=172	=172	=172	=172	=172
1D	9 4	1a	1D	1a	2e	2g\]	1r	1D	(2e	(2g	1a
=173	=173	=173	=173	=173	=173	=173	=173	=173	=173	=173	=173
2GG	7	2g	2GG	2g	2B	2d\	1r	2GG	2B	2g	2g
*	*	*	*^	*	*	*	*	*	*	*	*
2E	.	4g	2E	2B	4g	4ryy	2e\	.	4E	4B	4e	4g
.	.	4g	.	.	4g	4ryy	.	.	4E	4B	4e	4g
*	*	*	*	*	*	*	*v	*v	*	*	*	*
=174	=174	=174	=174	=174	=174	=174	=174	=174	=174	=174	=174
2BB	6	2g	2BB	2G	2g	2d	1r	2BB	2d	2d	2g
2C	6	2a	2C	2c	2a	2e	.	2C	2c	2e	2a
=175	=175	=175	=175	=175	=175	=175	=175	=175	=175	=175	=175
2D	6 5 n	2a	2D	1B	2a	2fn	1r	2D	2B	2fn	2a
2E	#	2g#X	2E	.	2g#X	2e	.	2E	2B	2e	2g#X
*	*	*	*v	*v	*	*	*	*	*	*	*
=176	=176	=176	=176	=176	=176	=176	=176	=176	=176	=176
*	*	*	*	*	*	*^	*	*	*	*
2AA	.	2a	2AA	2a	2c	2e\	1r	2AA	2c	2e	2a
2GGni	.	2b	2GGni	2b	2d	2gni\	.	2GG	2d	2g	2b
=177	=177	=177	=177	=177	=177	=177	=177	=177	=177	=177	=177
2BB	6	2b	2BB	2b	2d	2g\	1r	2BB	2d	2g	2b
2D	6 4	2b	2D	2b	2d	2g\	.	2D	2d	2g	2b
=178	=178	=178	=178	=178	=178	=178	=178	=178	=178	=178	=178
2G	.	2b	2G	2b	2d	2g\	1r	2G	2d	2g	2b
2D	6 4	4b	2D	4b	2d	2g\	.	4D	4d	4g	4b
.	.	4b	.	4b	.	.	.	4D	4d	4g	4b
=179	=179	=179	=179	=179	=179	=179	=179	=179	=179	=179	=179
2BB	6	2b	2BB	2b	2d	2g\	1r	2BB	2d	2g	2b
2GG	.	2b	2GG	2b	2d	2g\	.	2GG	2d	2g	2b
=180	=180	=180	=180	=180	=180	=180	=180	=180	=180	=180	=180
2E	.	2b	2E	2b	2e	2g\	1r	2E	2e	2g	2b
2D#X	5	4b	2D#X	4b	2f#	2a\	.	4D#X	4f#	4a	4b
.	.	4b	.	4b	.	.	.	4D#	4f#	4a	4b
=181	=181	=181	=181	=181	=181	=181	=181	=181	=181	=181	=181
2.E	.	2.b	2.E	2.b	2.e	2.g\	1r	2.E	2.e	2.g	2.b
4E	.	4b	4E	4b	4e	4g\	.	4E	4e	4g	4b
=182	=182	=182	=182	=182	=182	=182	=182	=182	=182	=182	=182
2BB	6	4b	2BB	4b	2d	2g\	1r	4BB	4d	4g	4b
.	.	4b	.	4b	.	.	.	4BB	4d	4g	4b
2GG	.	4b	2GG	4b	2d	2g\	.	4GG	4d	4g	4b
.	.	4b	.	4b	.	.	.	4GG	4d	4g	4b
=183	=183	=183	=183	=183	=183	=183	=183	=183	=183	=183	=183
2C	6 5	1a	2C	1a	2e	2g\	1r	(2C	(2e	(2g	1a
2D	.	.	2D	.	4d	2f#\	.	2D)	4d	2f#)	.
.	.	.	.	.	4c	.	.	.	4c)	.	.
=184	=184	=184	=184	=184	=184	=184	=184	=184	=184	=184	=184
2GG	.	2g	2GG	2g	2B	2d\	1r	2GG	2B	2g	2g
2C	.	4g	2C	4g	2c	2e\	.	4C	4c	4e	4g
.	.	4g	.	4g	.	.	.	4C	4c	4e	4g
*	*	*	*	*	*	*v	*v	*	*	*	*
=185	=185	=185	=185	=185	=185	=185	=185	=185	=185	=185
*	*	*	*^	*	*	*	*	*	*	*
2BB	6	2g	2BB	2G	2g	2d	1r	2BB	2d	2d	2g
2C	6	2a	2C	2c	2a	2e	.	2C	2c	2e	2a
=186	=186	=186	=186	=186	=186	=186	=186	=186	=186	=186	=186
2D	6 5 n	2a	2D	1B	2a	2fn	1r	2D	2B	2fn	2a
2E	#	2g#X	2E	.	2g#X	2e	.	2E	2B	2e	2g#X
*	*	*	*v	*v	*	*	*	*	*	*	*
=187	=187	=187	=187	=187	=187	=187	=187	=187	=187	=187
*	*	*	*	*	*	*^	*	*	*	*
2AA	.	2a	2AA	2a	2c	2e\	1r	2AA	2c	2e	2a
2GGni	.	2b	2GGni	2b	2d	2gni\	.	2GG	2d	2g	2b
=188	=188	=188	=188	=188	=188	=188	=188	=188	=188	=188	=188
2E	.	2b	2E	2b	2e	2g\	1r	2E	2e	2g	2b
2G	.	4b	2G	4b	2d	2g\	.	4G	4d	4g	4b
.	.	4b	.	4b	.	.	.	4G	4d	4g	4b
=189	=189	=189	=189	=189	=189	=189	=189	=189	=189	=189	=189
2BB	6	2b	2BB	2b	2d	2g\	1r	2BB	2d	2g	2b
2G	.	2b	2G	2b	2d	2g\	.	2G	2d	2g	2b
=190	=190	=190	=190	=190	=190	=190	=190	=190	=190	=190	=190
2GG	.	2b	2GG	2b	2d	2g\	1r	2GG	2d	2g	2b
2E	.	4b	2E	4b	2e	[2g\	.	4E	4e	4g	4b
.	.	4b	.	4b	.	.	.	4E	4e	4g	4b
=191	=191	=191	=191	=191	=191	=191	=191	=191	=191	=191	=191
2C	6 5	2a	2C	2a	2e	2g\]	1r	2C	2e	2g	2a
2D	.	2a	2D	2a	2d	2f#\	.	2D	2d	2f#	2a
=192	=192	=192	=192	=192	=192	=192	=192	=192	=192	=192	=192
2GG	.	2g	2GG	2g	2B	2d\	1r	2GG	2B	2g	2g
*	*	*	*^	*	*	*	*	*	*	*	*
2BB	6	4g	2BB	2G	4g	4ryy	2d\	.	4BB	4G	4d	4g
.	.	4g	.	.	4g	4ryy	.	.	4BB	4G	4d	4g
*	*	*	*	*	*	*	*v	*v	*	*	*	*
=193	=193	=193	=193	=193	=193	=193	=193	=193	=193	=193	=193
2C	5	2g	1C	1c	2g	1e	1r	2C	2c	2e	2g
2C	6	2a	.	.	2a	.	.	2C	2c	2e	2a
=194	=194	=194	=194	=194	=194	=194	=194	=194	=194	=194	=194
2D	6 5 n	2a	2D	1B	2a	2fn	1r	2D	2B	2fn	2a
2E	#	2g#X	2E	.	2g#X	2e	.	2E	2B	2e	2g#X
*	*	*	*v	*v	*	*	*	*	*	*	*
=195	=195	=195	=195	=195	=195	=195	=195	=195	=195	=195
*	*	*	*	*	*	*^	*	*	*	*
2AA	.	2a	2AA	2a	2c	2e\	1r	2AA	2c	2e	2a
2GGni	.	2b	2GGni	2b	2d	2gni\	.	2GG	2d	2g	2b
=196	=196	=196	=196	=196	=196	=196	=196	=196	=196	=196	=196
2G	.	4b	2G	4b	2d	2g\	1r	4G	4d	4g	4b
.	.	4b	.	4b	.	.	.	4G	4d	4g	4b
2F#	2	4b	2F#	4b	2d	2g\	.	4F#	4d	4g	4b
.	.	4b	.	4b	.	.	.	4F#	4d	4g	4b
=197	=197	=197	=197	=197	=197	=197	=197	=197	=197	=197	=197
2E	.	2b	2E	2b	2e	2g\	1r	2E	2e	2g	2b
2G	.	2b	2G	2b	2d	2g\	.	2G	2d	2g	2b
=198	=198	=198	=198	=198	=198	=198	=198	=198	=198	=198	=198
2.GG	.	2.b	2.GG	2.b	2.d	2.g\	1r	2.GG	2.d	2.g	2.b
4D#X	5	4b	4D#X	4b	4f#	4a\	.	4D#X	4f#	4a	4b
=199	=199	=199	=199	=199	=199	=199	=199	=199	=199	=199	=199
2E	.	2b	2E	2b	2e	2g\	1r	2E	2e	2g	2b
2Dni	2	4b	2Dni	4b	2e	[2g\	.	4Dni	4e	4g	4b
.	.	4b	.	4b	.	.	.	4D	4e	4g	4b
=200	=200	=200	=200	=200	=200	=200	=200	=200	=200	=200	=200
2C	6 5	1a	2C	1a	2e	2g\]	1r	(2C	(2e	(2g	1a
2D	.	.	2D	.	4d	2f#\	.	2D)	4d	2f#)	.
.	.	.	.	.	4c	.	.	.	4c)	.	.
=201	=201	=201	=201	=201	=201	=201	=201	=201	=201	=201	=201
2GG	.	2g	2GG	2g	2B	2d\	1r	2GG	2B	2g	2g
2E	.	4g	2E	4g	2B	2e\	.	4E	4B	4e	4g
.	.	4g	.	4g	.	.	.	4E	4B	4e	4g
=202	=202	=202	=202	=202	=202	=202	=202	=202	=202	=202	=202
2C	.	2g	2C	2g	2c	2e\	1r	2C	2c	2e	2g
2Fn	.	2a	2Fn	2a	2c	[2fn\	.	2Fn	2c	[2fn	2a
=203	=203	=203	=203	=203	=203	=203	=203	=203	=203	=203	=203
2BB	7	2a	2BB	2a	2d	2f\]	1r	2BB	2d	2f]	2a
*	*	*	*^	*	*	*	*	*	*	*	*
2E	#	2g#X	2E	2B	2g#X	2ryy	2e\	.	2E	2B	2e	2g#X
*	*	*	*v	*v	*	*	*	*	*	*	*	*
=204	=204	=204	=204	=204	=204	=204	=204	=204	=204	=204	=204
2AA	.	2a	2AA	2a	2c	2e\	1r	2AA	2c	2e	2a
2E	.	2b	2E	2b	2e	2gni\	.	2E	2e	2g	2b
=205	=205	=205	=205	=205	=205	=205	=205	=205	=205	=205	=205
2D#X	6	2b	2D#X	2b	2f#	2f#/	1r	2D#X	2f#	2f#	2b
2BB	7 #	4b	2BB	4b	2d#X	2a\	.	4BB	4d#X	4a	4b
.	.	4b	.	4b	.	.	.	4BB	4d#	4a	4b
=206	=206	=206	=206	=206	=206	=206	=206	=206	=206	=206	=206
2E	.	2b	2E	2b	2e	2g\	1r	2E	2e	2g	2b
2F#	6 4 3	2b	2F#	2b	2d#X	2a\	.	2F#	2d#X	2a	2b
=207	=207	=207	=207	=207	=207	=207	=207	=207	=207	=207	=207
2G	6	2b	2G	2b	2e	2g\	1r	2G	2e	2g	2b
2E	.	2b	2E	2b	2e	2g\	.	2E	2e	2g	2b
=208	=208	=208	=208	=208	=208	=208	=208	=208	=208	=208	=208
2BB	6	4b	2BB	4b	2d	2g\	1r	4BB	4d	4g	4b
.	.	4b	.	4b	.	.	.	4BB	4d	4g	4b
2GG	.	4b	2GG	4b	2d	[2g\	.	4GG	4d	4g	4b
.	.	4b	.	4b	.	.	.	4GG	4d	4g	4b
=209	=209	=209	=209	=209	=209	=209	=209	=209	=209	=209	=209
2D	4	2a	2D	2a	2d	2g\]	1r	2D	2d	2g	2a
2D	3	2a	2D	2a	2d	2f#\	.	2D	2d	2f#	2a
=210	=210	=210	=210	=210	=210	=210	=210	=210	=210	=210	=210
2GG	.	2b	2GG	2b	2d	2g\	1r	2GG	2d	2g	2b
2G	.	2b	2G	2b	2d	2g\	.	2G	2d	2g	2b
=211	=211	=211	=211	=211	=211	=211	=211	=211	=211	=211	=211
2F#	5	2cc	2F#	2cc	2d	2a\	1r	2F#	2d	2a	2cc
2G	.	2b	2G	2b	2d	2g\	.	2G	2d	2g	2b
=212	=212	=212	=212	=212	=212	=212	=212	=212	=212	=212	=212
2E	.	4b	2E	4b	2e	2g\	1r	4E	4e	4g	4b
.	.	4b	.	4b	.	.	.	4E	4e	4g	4b
2D	2	4b	2D	4b	2e	[2g\	.	4D	4e	4g	4b
.	.	4b	.	4b	.	.	.	4D	4e	4g	4b
=213	=213	=213	=213	=213	=213	=213	=213	=213	=213	=213	=213
2C	6 5	1a	2C	1a	2e	2g\]	1r	(2C	(2e	(2g	1a
2D	.	.	2D	.	4d	2f#\	.	2D)	4d	2f#)	.
.	.	.	.	.	4c	.	.	.	4c)	.	.
=214	=214	=214	=214	=214	=214	=214	=214	=214	=214	=214	=214
2GG	.	2g	2GG	2g	2B	2d\	1r	2GG	2B	2g	2g
*	*	*	*^	*	*	*	*	*	*	*	*
2BB	6	4g	2BB	2G	4g	4ryy	2d\	.	4BB	4G	4d	4g
.	.	4g	.	.	4g	4ryy	.	.	4BB	4G	4d	4g
*	*	*	*	*	*	*	*v	*v	*	*	*	*
=215	=215	=215	=215	=215	=215	=215	=215	=215	=215	=215	=215
2C	5	2g	1C	1c	2g	1e	1r	2C	2c	2e	2g
2C	6	2a	.	.	2a	.	.	2C	2c	2e	2a
=216	=216	=216	=216	=216	=216	=216	=216	=216	=216	=216	=216
2D	6 5 n	2a	2D	1B	2a	2fn	1r	2D	2B	2fn	2a
2E	#	2g#X	2E	.	2g#X	2e	.	2E	2B	2e	2g#X
*	*	*	*v	*v	*	*	*	*	*	*	*
=217	=217	=217	=217	=217	=217	=217	=217	=217	=217	=217
*	*	*	*	*	*	*^	*	*	*	*
2AA	.	2a	2AA	2a	2c	2e\	1r	2AA	2c	2e	2a
2GGni	.	2b	2GGni	2b	2d	2gni\	.	2GG	2d	2g	2b
=218	=218	=218	=218	=218	=218	=218	=218	=218	=218	=218	=218
2BB	6	4b	2BB	4b	2d	2g\	1r	4BB	4d	4g	4b
.	.	4b	.	4b	.	.	.	4BB	4d	4g	4b
2GG	.	4b	2GG	4b	2d	[2g\	.	4GG	4d	4g	4b
.	.	4b	.	4b	.	.	.	4GG	4d	4g	4b
=219	=219	=219	=219	=219	=219	=219	=219	=219	=219	=219	=219
2D	4	2a	2D	2a	2d	2g\]	1r	2D	2d	2g	2a
2D	3	2a	2D	2a	2d	2f#\	.	2D	2d	2f#	2a
=220	=220	=220	=220	=220	=220	=220	=220	=220	=220	=220	=220
2.GG	.	2.b	2.GG	2.b	2.d	2.g\	1r	2.GG	2.d	2.g	2.b
4G	.	4b	4G	4b	4d	4g\	.	4G	4d	4g	4b
=221	=221	=221	=221	=221	=221	=221	=221	=221	=221	=221	=221
2C	6 5	2a	2C	2a	2e	2g\	1r	2C	2e	2g	2a
2D	.	4a	2D	4a	4d	2f#\	.	4D	4d	4f#	4a
.	.	4a	.	4a	4c	.	.	4D	4c	4f#	4a
=222	=222	=222	=222	=222	=222	=222	=222	=222	=222	=222	=222
2GG	.	2g	2GG	2g	2B	2d\	1r	2GG	2B	2g	2g
*	*	*	*^	*	*	*	*	*	*	*	*
2E	.	4g	2E	2B	4g	4ryy	2e\	.	4E	4B	4e	4g
.	.	4g	.	.	4g	4ryy	.	.	4E	4B	4e	4g
*	*	*	*	*	*	*	*v	*v	*	*	*	*
=223	=223	=223	=223	=223	=223	=223	=223	=223	=223	=223	=223
2C	.	2g	2C	2c	2g	2e	1r	2C	2c	2e	2g
2Fn	.	2a	2Fn	2A	2a	2c	.	2Fn	2c	2fn	2a
=224	=224	=224	=224	=224	=224	=224	=224	=224	=224	=224	=224
2D	6 5 n	2a	2D	1B	2a	2fn	1r	2D	2B	2fn	2a
2E	#	2g#X	2E	.	2g#X	2e	.	2E	2B	2e	2g#X
*	*	*	*v	*v	*	*	*	*	*	*	*
=225	=225	=225	=225	=225	=225	=225	=225	=225	=225	=225
*	*	*	*	*	*	*^	*	*	*	*
2AA	.	2a	2AA	2a	2c	2e\	1r	2AA	2c	2e	2a
2GGni	.	2b	2GGni	2b	2d	2gni\	.	2GG	2d	2g	2b
=226	=226	=226	=226	=226	=226	=226	=226	=226	=226	=226	=226
2BB	6	4b	2BB	4b	2d	2g\	1r	4BB	4d	4g	4b
.	.	4b	.	4b	.	.	.	4BB	4d	4g	4b
2D	6 4	4b	2D	4b	2d	2g\	.	4D	4d	4g	4b
.	.	4b	.	4b	.	.	.	4D	4d	4g	4b
=227	=227	=227	=227	=227	=227	=227	=227	=227	=227	=227	=227
2G	.	2b	2G	2b	2d	2g\	1r	2G	2d	2g	2b
2Fn	2	4b	2Fn	4b	2d	2g\	.	4Fn	4d	4g	4b
.	.	4b	.	4b	.	.	.	4F	4d	4g	4b
=228	=228	=228	=228	=228	=228	=228	=228	=228	=228	=228	=228
2E	6	2cc	2E	2cc	2c	2g\	1r	2E	2c	2g	2cc
2G	.	2b	2G	2b	2d	2g\	.	2G	2d	2g	2b
=229	=229	=229	=229	=229	=229	=229	=229	=229	=229	=229	=229
2C	7 5	2b	2C	2b	2e	2g\	1r	2C	2e	2g	2b
2C#X	.	2b	2C#X	2b	2e	[2g\	.	2C#X	2e	[2g	2b
*	*	*	*	*	*	*v	*v	*	*	*	*
=230	=230	=230	=230	=230	=230	=230	=230	=230	=230	=230
*	*	*	*^	*	*	*	*	*	*	*
1D	4	1a	1D	1A	1a	2g]	1r	1D	1A	(2g]	1a
*	*	*	*v	*v	*	*	*	*	*	*	*
=231	=231	=231	=231	=231	=231	=231	=231	=231	=231	=231
*	*	*	*	*	*	*^	*	*	*	*
2GG	3	2g	2GG	2g	2B	2d\	1r	2GG	2B	2g	2g
2C	.	4g	2C	4g	2c	2e\	.	4C	4c	4e	4g
.	.	4g	.	4g	.	.	.	4C	4c	4e	4g
*	*	*	*	*	*	*v	*v	*	*	*	*
=232	=232	=232	=232	=232	=232	=232	=232	=232	=232	=232
*	*	*	*^	*	*	*	*	*	*	*
2BB	6	2g	2BB	2G	2g	2d	1r	2BB	2d	2d	2g
2C	6	2a	2C	2c	2a	2e	.	2C	2c	2e	2a
=233	=233	=233	=233	=233	=233	=233	=233	=233	=233	=233	=233
2D	6 5 n	2a	2D	1B	2a	2fn	1r	2D	2B	2fn	2a
2E	#	2g#X	2E	.	2g#X	2e	.	2E	2B	2e	2g#X
*	*	*	*v	*v	*	*	*	*	*	*	*
=234	=234	=234	=234	=234	=234	=234	=234	=234	=234	=234
*	*	*	*	*	*	*^	*	*	*	*
2AA	.	2a	2AA	2a	2c	2e\	1r	2AA	2c	2e	2a
2GGni	.	2b	2GGni	2b	2d	2gni\	.	2GG	2d	2g	2b
=235	=235	=235	=235	=235	=235	=235	=235	=235	=235	=235	=235
2E	.	2b	2E	2b	2e	2g\	1r	2E	2e	2g	2b
2BB	6	4b	2BB	4b	2d	[2g\	.	4BB	4d	4g	4b
.	.	4b	.	4b	.	.	.	4BB	4d	4g	4b
=236	=236	=236	=236	=236	=236	=236	=236	=236	=236	=236	=236
2C	6 5	2a	2C	2a	2e	2g\]	1r	2C	2e	2g	2a
2D	.	2a	2D	2a	2d	2f#\	.	2D	2d	2f#	2a
=237	=237	=237	=237	=237	=237	=237	=237	=237	=237	=237	=237
2GG	.	2b	2GG	2b	2d	2g\	1r	2GG	2d	2g	2b
2G	.	4b	2G	4b	2d	[2g\	.	4G	4d	4g	4b
.	.	4b	.	4b	.	.	.	4G	4d	4g	4b
=238	=238	=238	=238	=238	=238	=238	=238	=238	=238	=238	=238
2D	4	2a	2D	2a	2d	2g\]	1r	2D	2d	2g	2a
2D	3	2a	2D	2a	4d	2f#\	.	2D	(4d	2f#	2a
.	.	.	.	.	4c	.	.	.	4c)	.	.
=239	=239	=239	=239	=239	=239	=239	=239	=239	=239	=239	=239
2GG	.	2g	2GG	2g	2B	2d\	1r	2GG	2B	2g	2g
*	*	*	*^	*	*	*	*	*	*	*	*
2BB	6	4g	2BB	2G	4g	4ryy	2d\	.	4BB	4d	4d	4g
.	.	4g	.	.	4g	4ryy	.	.	4BB	4d	4d	4g
*	*	*	*	*	*	*	*v	*v	*	*	*	*
=240	=240	=240	=240	=240	=240	=240	=240	=240	=240	=240	=240
2C	.	2g	2C	2c	2g	2e	1r	2C	2c	2e	2g
2Fn	.	2a	2Fn	2A	2a	2c	.	2Fn	2c	2fn	2a
=241	=241	=241	=241	=241	=241	=241	=241	=241	=241	=241	=241
2D	6 5 n	2a	2D	1B	2a	2fn	1r	2D	2B	2fn	2a
2E	#	2g#X	2E	.	2g#X	2e	.	2E	2B	2e	2g#X
*	*	*	*v	*v	*	*	*	*	*	*	*
=242	=242	=242	=242	=242	=242	=242	=242	=242	=242	=242
*	*	*	*	*	*	*^	*	*	*	*
2AA	.	2a	2AA	2a	2c	2e\	1r	2AA	2c	2e	2a
2GGni	.	4b	2GGni	4b	2d	2gni\	.	4GG	4d	4g	4b
.	.	4b	.	4b	.	.	.	4GG	4d	4g	4b
=243	=243	=243	=243	=243	=243	=243	=243	=243	=243	=243	=243
2G	.	2b	2G	2b	2d	2g\	1r	2G	2d	2g	2b
2D#X	5	4b	2D#X	4b	2f#	2a\	.	4D#X	4f#	4a	4b
.	.	4b	.	4b	.	.	.	4D#	4f#	4a	4b
=244	=244	=244	=244	=244	=244	=244	=244	=244	=244	=244	=244
2E	.	2b	2E	2b	2e	2g\	1r	2E	2e	2g	2b
2BB	6	4b	2BB	4b	2dni	[2g\	.	4BB	4d	4g	4b
.	.	4b	.	4b	.	.	.	4BB	4d	4g	4b
=245	=245	=245	=245	=245	=245	=245	=245	=245	=245	=245	=245
2C	6 5	2a	2C	2a	2e	2g\]	1r	2C	2e	2g	2a
2D	.	2a	2D	2a	2d	2f#\	.	2D	2d	2f#	2a
=246	=246	=246	=246	=246	=246	=246	=246	=246	=246	=246	=246
2GG	.	4b	2GG	4b	2d	2g\	1r	4GG	4d	4g	4b
.	.	4b	.	4b	.	.	.	4GG	4d	4g	4b
2G	.	4b	2G	4b	2d	[2g\	.	4G	4d	4g	4b
.	.	4b	.	4b	.	.	.	4G	4d	4g	4b
=247	=247	=247	=247	=247	=247	=247	=247	=247	=247	=247	=247
2D	4	2a	2D	2a	2d	4g\]	1r	2D	2d	(4g	2a
2GG	3	2b	2GG	2b	2d	2g\	.	2GG	2d	2g	2b
=248	=248	=248	=248	=248	=248	=248	=248	=248	=248	=248	=248
2BB	6	2b	2BB	2b	2d	2g\	1r	2BB	2d	2g	2b
2D	6 4	4b	2D	4b	2d	2g\	.	4D	4d	4g	4b
.	.	4b	.	4b	.	.	.	4D	4d	4g	4b
=249	=249	=249	=249	=249	=249	=249	=249	=249	=249	=249	=249
2G	.	4b	2G	4b	2d	2g\	1r	4G	4d	4g	4b
.	.	4b	.	4b	.	.	.	4G	4d	4g	4b
2E	.	4b	2E	4b	2e	[2g\	.	4E	4e	4g	4b
.	.	4b	.	4b	.	.	.	4E	4e	4g	4b
=250	=250	=250	=250	=250	=250	=250	=250	=250	=250	=250	=250
2C	6 5	1a	2C	1a	2e	2g\]	1r	(2C	(2e	(2g	1a
2D	.	.	2D	.	4d	2f#\	.	2D)	4d	2f#)	.
.	.	.	.	.	4c	.	.	.	4c)	.	.
=251	=251	=251	=251	=251	=251	=251	=251	=251	=251	=251	=251
2GG	.	2g	2GG	2g	2B	2d\	1r	2GG	2B	2g	2g
2C	.	4g	2C	4g	2c	2e\	.	4C	4c	4e	4g
.	.	4g	.	4g	.	.	.	4C	4c	4e	4g
*	*	*	*	*	*	*v	*v	*	*	*	*
=252	=252	=252	=252	=252	=252	=252	=252	=252	=252	=252
*	*	*	*^	*	*	*	*	*	*	*
2BB	6	2g	2BB	2G	2g	2d	1r	2BB	2d	2d	2g
2C	6	2a	2C	2c	2a	2e	.	2C	2c	2e	2a
=253	=253	=253	=253	=253	=253	=253	=253	=253	=253	=253	=253
2D	6 5 n	2a	2D	1B	2a	2fn	1r	2D	2B	2fn	2a
2E	#	2g#X	2E	.	2g#X	2e	.	2E	2B	2e	2g#X
*	*	*	*v	*v	*	*	*	*	*	*	*
=254	=254	=254	=254	=254	=254	=254	=254	=254	=254	=254
*	*	*	*	*	*	*^	*	*	*	*
2AA	.	2a	2AA	2a	2c	2e\	1r	2AA	2c	2e	2a
2E	.	4b	2E	4b	2e	2gni\	.	4E	4e	4g	4b
.	.	4b	.	4b	.	.	.	4E	4e	4g	4b
=255	=255	=255	=255	=255	=255	=255	=255	=255	=255	=255	=255
2BB	6	2b	2BB	2b	2d	2g\	1r	2BB	2d	2g	2b
2GG	.	2b	2GG	2b	2d	[2g\	.	2GG	2d	[2g	2b
=256	=256	=256	=256	=256	=256	=256	=256	=256	=256	=256	=256
2D	4	2a	2D	2a	2d	2g\]	1r	2D	2d	2g]	2a
2D	3	4a	2D	4a	2d	2f#\	.	4D	4d	4f#	4a
.	.	4a	.	4a	.	.	.	4D	4d	4f#	4a
=257	=257	=257	=257	=257	=257	=257	=257	=257	=257	=257	=257
2GG	.	2b	2GG	2b	2d	2g\	1r	2GG	2d	2g	2b
2BB	6	4b	2BB	4b	2d	[2g\	.	4BB	4d	4g	4b
.	.	4b	.	4b	.	.	.	4BB	4d	4g	4b
=258	=258	=258	=258	=258	=258	=258	=258	=258	=258	=258	=258
2C	6 5	1a	2C	1a	2e	2g\]	1r	2C	(2e	(2g	1a
2D	.	.	2D	.	2d	2f#\	.	2D	2d)	2f#)	.
=259	=259	=259	=259	=259	=259	=259	=259	=259	=259	=259	=259
2GG	.	2g	2GG	2g	2B	2d\	1r	2GG	2B	2g	2g
2C	.	4g	2C	4g	2c	2e\	.	4C	4c	4e	4g
.	.	4g	.	4g	.	.	.	4C	4c	4e	4g
=260	=260	=260	=260	=260	=260	=260	=260	=260	=260	=260	=260
2E	6	2g	2E	2g	2c	2g\	1r	2E	2c	2g	2g
2Fn	.	2a	2Fn	2a	2c	[2fn\	.	2Fn	2c	[2fn	2a
=261	=261	=261	=261	=261	=261	=261	=261	=261	=261	=261	=261
2BB	7	2a	2BB	2a	2d	2f\]	1r	2BB	2d	2f]	2a
*	*	*	*^	*	*	*	*	*	*	*	*
2E	#	2g#X	2E	2B	2g#X	2ryy	2e\	.	2E	2B	2e	2g#X
*	*	*	*v	*v	*	*	*	*	*	*	*	*
=262	=262	=262	=262	=262	=262	=262	=262	=262	=262	=262	=262
2AA	.	2a	2AA	2a	2c	2e\	1r	2AA	2c	2e	2a
2GGni	.	4b	2GGni	4b	2d	2gni\	.	4GG	4d	4g	4b
.	.	4b	.	4b	.	.	.	4GG	4d	4g	4b
=263	=263	=263	=263	=263	=263	=263	=263	=263	=263	=263	=263
2G	.	2b	2G	2b	2d	2g\	1r	2G	2d	2g	2b
2F#	2	2b	2F#	2b	2d	2g\	.	2F#	2d	2g	2b
=264	=264	=264	=264	=264	=264	=264	=264	=264	=264	=264	=264
2E	.	2b	2E	2b	2e	2g\	1r	2E	2e	2g	2b
2D	2	2b	2D	2b	2e	[2g\	.	2D	2e	[2g	2b
=265	=265	=265	=265	=265	=265	=265	=265	=265	=265	=265	=265
2C	6 5	2a	2C	2a	2e	2g\]	1r	2C	2e	2g]	2a
2D	.	2a	2D	2a	2d	2f#\	.	2D	2d	2f#	2a
=266	=266	=266	=266	=266	=266	=266	=266	=266	=266	=266	=266
2GG	.	2b	2GG	2b	2d	2g\	1r	2GG	2d	2g	2b
2E	.	2b	2E	2b	2e	2g\	.	2E	2e	2g	2b
=267	=267	=267	=267	=267	=267	=267	=267	=267	=267	=267	=267
2BB	6	2b	2BB	2b	2d	2g\	1r	2BB	2d	2g	2b
2C	7 5	4b	2C	4b	[2e	[2g\	.	4C	4e	4g	4b
.	.	4b	.	4b	.	.	.	4C	4e	4g	4b
=268	=268	=268	=268	=268	=268	=268	=268	=268	=268	=268	=268
2D	9 4	2a	2D	2a	2e]	2g\]	1r	2D	2e	2g	2a
2D	8 3	2a	2D	2a	4d	2f#\	.	2D	(4d	2f#	2a
.	.	.	.	.	4c	.	.	.	4c)	.	.
=269	=269	=269	=269	=269	=269	=269	=269	=269	=269	=269	=269
2GG	.	2g	2GG	2g	2B	2d\	1r	2GG	2B	2g	2g
2BB	6	4g	2BB	4g	2d	2d/	.	4BB	4d	4d	4g
.	.	4g	.	4g	.	.	.	4BB	4d	4d	4g
*	*	*	*	*	*	*v	*v	*	*	*	*
=270	=270	=270	=270	=270	=270	=270	=270	=270	=270	=270
*	*	*	*^	*	*	*	*	*	*	*
2C	5	2g	1C	1c	2g	1e	1r	2C	2c	2e	2g
2C	6	2a	.	.	2a	.	.	2C	2c	2e	2a
=271	=271	=271	=271	=271	=271	=271	=271	=271	=271	=271	=271
2D	6 5 n	2a	2D	1B	2a	2fn	1r	2D	2B	2fn	2a
2E	#	2g#X	2E	.	2g#X	2e	.	2E	2B	2e	2g#X
*	*	*	*v	*v	*	*	*	*	*	*	*
=272	=272	=272	=272	=272	=272	=272	=272	=272	=272	=272
*	*	*	*	*	*	*^	*	*	*	*
2AA	.	2a	2AA	2a	2c	2e\	1r	2AA	2c	2e	2a
2GGni	.	4b	2GGni	4b	2d	2gni\	.	4GG	4d	4g	4b
.	.	4b	.	4b	.	.	.	4GG	4d	4g	4b
=273	=273	=273	=273	=273	=273	=273	=273	=273	=273	=273	=273
2G	.	2b	2G	2b	2d	2g\	1r	2G	2d	2g	2b
2E	.	4b	2E	4b	2e	[2g\	.	4E	4e	4g	4b
.	.	4b	.	4b	.	.	.	4E	4e	4g	4b
=274	=274	=274	=274	=274	=274	=274	=274	=274	=274	=274	=274
2C	6 5	2a	2C	2a	2e	2g\]	1r	2C	2e	2g	2a
2D	.	4a	2D	4a	2d	2f#\	.	4D	4d	4f#	4a
.	.	4a	.	4a	.	.	.	4D	4d	4f#	4a
=275	=275	=275	=275	=275	=275	=275	=275	=275	=275	=275	=275
2GG	.	2b	2GG	2b	2d	2g\	1r	2GG	2d	2g	2b
2D	6 n	4b	2D	2b	2d	2fn\	.	4D	4d	4fn	4b
.	.	4b	.	.	.	.	.	4D	4d	4f	4b
=276	=276	=276	=276	=276	=276	=276	=276	=276	=276	=276	=276
2C	.	2cc	2C	2cc	2e	2g\	1r	2C	2e	2g	2cc
2G	.	2b	2G	2b	2d	[2g\	.	2G	2d	[2g	2b
*	*	*	*	*	*	*v	*v	*	*	*	*
=277	=277	=277	=277	=277	=277	=277	=277	=277	=277	=277
*	*	*	*^	*	*	*	*	*	*	*
1D	4	1a	1D	2d	1a	2g]	1r	1D	(2d	(2g]	1a
*	*	*	*v	*v	*	*	*	*	*	*	*
=278	=278	=278	=278	=278	=278	=278	=278	=278	=278	=278
*	*	*	*	*	*	*^	*	*	*	*
2GG	3	2g	2GG	2g	2B	2d\	1r	2GG	2B	2g	2g
2E	.	4g	2E	4g	2B	2e\	.	4E	4B	4e	4g
.	.	4g	.	4g	.	.	.	4E	4B	4e	4g
=279	=279	=279	=279	=279	=279	=279	=279	=279	=279	=279	=279
2D	2	2g	2D	2g	2B	2e\	1r	2D	2B	2e	2g
2C	6	2a	2C	2a	2c	2e\	.	2C	2c	2e	2a
=280	=280	=280	=280	=280	=280	=280	=280	=280	=280	=280	=280
2BB	7	2a	2BB	2a	2d	2fn\	1r	2BB	2d	2fn	2a
*	*	*	*^	*	*	*	*	*	*	*	*
2E	#	2g#X	2E	2B	2g#X	2ryy	2e\	.	2E	2B	2e	2g#X
*	*	*	*v	*v	*	*	*	*	*	*	*	*
=281	=281	=281	=281	=281	=281	=281	=281	=281	=281	=281	=281
2AA	.	2a	2AA	2a	2c	2e\	1r	2AA	2c	2e	2a
2GGni	.	2b	2GGni	2b	2d	2gni\	.	2GG	2d	2g	2b
=282	=282	=282	=282	=282	=282	=282	=282	=282	=282	=282	=282
2G	.	2b	2G	2b	2d	2g\	1r	2G	2d	2g	2b
2BB	6	4b	2BB	4b	2d	[2g\	.	4BB	4d	4g	4b
.	.	4b	.	4b	.	.	.	4BB	4d	4g	4b
=283	=283	=283	=283	=283	=283	=283	=283	=283	=283	=283	=283
2C	6 5	2a	2C	2a	2e	2g\]	1r	2C	2e	2g	2a
2D	.	4a	2D	4a	2d	2f#\	.	4D	4d	4f#	4a
.	.	4a	.	4a	.	.	.	4D	4d	4f#	4a
=284	=284	=284	=284	=284	=284	=284	=284	=284	=284	=284	=284
2GG	.	2b	2GG	2b	2d	2g\	1r	2GG	2d	2g	2b
2G	.	2b	2G	2b	2d	2g\	.	2G	2d	2g	2b
*	*	*	*	*	*	*v	*v	*	*	*	*
=285	=285	=285	=285	=285	=285	=285	=285	=285	=285	=285
*	*	*	*^	*	*	*	*	*	*	*
2F#	5	2cc	2F#	1d	2cc	2a	1r	2F#	2d	2a	2cc
2G	.	2b	2G	.	2b	[2g	.	2G	2d	[2g	2b
=286	=286	=286	=286	=286	=286	=286	=286	=286	=286	=286	=286
1D	4	1a	1D	2d	1a	2g]	1r	1D	(2d	(2g]	1a
*	*	*	*v	*v	*	*	*	*	*	*	*
=287	=287	=287	=287	=287	=287	=287	=287	=287	=287	=287
*	*	*	*	*	*	*^	*	*	*	*
2GG	3	2g	2GG	2g	2B	2d\	1r	2GG	2B	2g	2g
2C	.	4g	2C	4g	2c	2e\	.	4C	4c	4e	4g
.	.	4g	.	4g	.	.	.	4C	4c	4e	4g
=288	=288	=288	=288	=288	=288	=288	=288	=288	=288	=288	=288
2BB	6	2g	2BB	2g	2d	2d/	1r	2BB	2d	2d	2g
2AA	.	2a	2AA	2a	2c	2e\	.	2AA	2c	2e	2a
*	*	*	*	*	*	*v	*v	*	*	*	*
=289	=289	=289	=289	=289	=289	=289	=289	=289	=289	=289
*	*	*	*^	*	*	*	*	*	*	*
1E	6 4	2a	1E	2c	2a	1e	1r	2E	2c	2e	2a
.	5 #	2g#X	.	2B	2g#X	.	.	2E	2B	2e	2g#X
*	*	*	*v	*v	*	*	*	*	*	*	*
=290	=290	=290	=290	=290	=290	=290	=290	=290	=290	=290
*	*	*	*	*	*	*^	*	*	*	*
2AA	.	2a	2AA	2a	2c	2e\	1r	2AA	2c	2e	2a
2E	.	2b	2E	2b	2e	2gni\	.	2E	2e	2g	2b
=291	=291	=291	=291	=291	=291	=291	=291	=291	=291	=291	=291
2D#X	5	2b	2D#X	2b	2f#	2a\	1r	2D#X	2f#	2a	2b
2BB	7 #	4b	2BB	4b	2d#X	2a\	.	4BB	4d#X	4a	4b
.	.	4b	.	4b	.	.	.	4BB	4d#	4a	4b
=292	=292	=292	=292	=292	=292	=292	=292	=292	=292	=292	=292
2E	.	2b	2E	2b	2e	2g\	1r	2E	2e	2g	2b
2Dni	6 4	2b	2Dni	2b	2fn	2g\	.	2Dni	2f	2g	2b
=293	=293	=293	=293	=293	=293	=293	=293	=293	=293	=293	=293
2C	.	2cc	2C	2cc	2e	2g\	1r	2C	2e	2g	2cc
2G	.	2b	2G	2b	2d	[2g\	.	2G	2d	[2g	2b
=294	=294	=294	=294	=294	=294	=294	=294	=294	=294	=294	=294
2C	6 5	2a	2C	2a	2e	2g\]	1r	2C	2e	2g]	2a
2D	.	2a	2D	2a	2d	2f#\	.	2D	2d	2f#	2a
=295	=295	=295	=295	=295	=295	=295	=295	=295	=295	=295	=295
2GG	.	2g	2GG	2g	2B	2d\	1r	2GG	2B	2g	2g
2BB	6	4g	2BB	4g	2d	2d/	.	4BB	4d	4d	4g
.	.	4g	.	4g	.	.	.	4BB	4d	4d	4g
*	*	*	*	*	*	*v	*v	*	*	*	*
=296	=296	=296	=296	=296	=296	=296	=296	=296	=296	=296
*	*	*	*^	*	*	*	*	*	*	*
2C	5	2g	1C	1c	2g	1e	1r	2C	2c	2e	2g
2C	6	2a	.	.	2a	.	.	2C	2c	2e	2a
=297	=297	=297	=297	=297	=297	=297	=297	=297	=297	=297	=297
2D	6 5 n	2a	2D	1B	2a	2fn	1r	2D	2B	2fn	2a
2E	#	2g#X	2E	.	2g#X	2e	.	2E	2B	2e	2g#X
*	*	*	*v	*v	*	*	*	*	*	*	*
=298	=298	=298	=298	=298	=298	=298	=298	=298	=298	=298
*	*	*	*	*	*	*^	*	*	*	*
2AA	.	2a	2AA	2a	2c	2e\	1r	2AA	2c	2e	2a
2GGni	.	2b	2GGni	2b	2d	2gni\	.	2GG	2d	2g	2b
=299	=299	=299	=299	=299	=299	=299	=299	=299	=299	=299	=299
2G	.	2b	2G	2b	2d	2g\	1r	2G	2d	2g	2b
2F#	2	4b	2F#	4b	2d	2g\	.	4F#	4d	4g	4b
.	.	4b	.	4b	.	.	.	4F#	4d	4g	4b
=300	=300	=300	=300	=300	=300	=300	=300	=300	=300	=300	=300
2E	.	2b	2E	2b	2e	2g\	1r	2E	2e	2g	2b
2D	4	2b	2D	2b	2e	2g#X\	.	2D	2e	2g#X	2b
=301	=301	=301	=301	=301	=301	=301	=301	=301	=301	=301	=301
2C	6	2a	2C	2a	2e	2a\	1r	2C	2e	2a	2a
2D	.	4a	2D	4a	2d	2f#\	.	4D	4d	4f#	4a
.	.	4a	.	4a	.	.	.	4D	4d	4f#	4a
=302	=302	=302	=302	=302	=302	=302	=302	=302	=302	=302	=302
2GG	.	2b	2GG	2b	2d	2g\	1r	2GG	2d	2g	2b
2G	.	4b	2G	4b	2d	2g\	.	4G	4d	4g	4b
.	.	4b	.	4b	.	.	.	4G	4d	4g	4b
=303	=303	=303	=303	=303	=303	=303	=303	=303	=303	=303	=303
2C	.	2cc	2C	2cc	2e	2g\	1r	2C	2e	2g	2cc
2G	.	2b	2G	2b	2d	[2g\	.	2G	2d	[2g	2b
=304	=304	=304	=304	=304	=304	=304	=304	=304	=304	=304	=304
2D	4	2a	2D	2a	2.d	2g\]	1r	2D	2d	2g]	2a
2D	3	2a	2D	2a	.	2f#\	.	2D	4d	2f#	2a
.	.	.	.	.	4c	.	.	.	4c	.	.
=305	=305	=305	=305	=305	=305	=305	=305	=305	=305	=305	=305
2GG	.	2g	2GG	2g	2B	2d\	1r	2GG	2B	2g	2g
2C	.	4g	2C	4g	2c	2e\	.	4C	4c	4e	4g
.	.	4g	.	4g	.	.	.	4C	4c	4e	4g
=306	=306	=306	=306	=306	=306	=306	=306	=306	=306	=306	=306
2E	6	2g	2E	2g	2c	2g\	1r	2E	2c	2g	2g
2Fn	.	2a	2Fn	2a	2c	2fn\	.	2Fn	2c	[2fn	2a
=307	=307	=307	=307	=307	=307	=307	=307	=307	=307	=307	=307
2BB	7	2a	2BB	2a	2d	2fn\	1r	2BB	2d	2f]	2a
*	*	*	*^	*	*	*	*	*	*	*	*
2E	#	2g#X	2E	2B	2g#X	2ryy	2e\	.	2E	2B	2e	2g#X
*	*	*	*v	*v	*	*	*	*	*	*	*	*
=308	=308	=308	=308	=308	=308	=308	=308	=308	=308	=308	=308
2AA	.	2a	2AA	2a	2c	2e\	1r	2AA	2c	2e	2a
2E	.	2b	2E	2b	2e	2gni\	.	2E	2e	2g	2b
=309	=309	=309	=309	=309	=309	=309	=309	=309	=309	=309	=309
2G	6	2b	2G	2b	2e	2g\	1r	2G	2e	2g	2b
[2E	.	2b	[2E	2b	2e	2g\	.	[2E	2e	2g	2b
=310	=310	=310	=310	=310	=310	=310	=310	=310	=310	=310	=310
2E]	2	2a	2E]	2a	2c	2f#\	1r	2E]	2c	2f#	2a
2D	.	2a	2D	2a	2d	2f#\	.	2D	2d	2f#	2a
=311	=311	=311	=311	=311	=311	=311	=311	=311	=311	=311	=311
2GG	.	2b	2GG	2b	2d	2g\	1r	2GG	2d	2g	2b
2BB	6	2b	2BB	2b	2d	[2g\	.	2BB	2d	[2g	2b
=312	=312	=312	=312	=312	=312	=312	=312	=312	=312	=312	=312
2C	6 5	2a	2C	2a	2e	2g\]	1r	2C	2e	2g]	2a
2D	.	2a	2D	2a	4d	2f#\	.	2D	4d	2f#	2a
.	.	.	.	.	4c	.	.	.	4c	.	.
=313	=313	=313	=313	=313	=313	=313	=313	=313	=313	=313	=313
2GG	.	2g	2GG	2g	2B	2d\	1r	2GG	2B	2g	2g
*	*	*	*^	*	*	*	*	*	*	*	*
2E	.	4g	2E	2B	4g	4ryy	2e\	.	4E	4B	4e	4g
.	.	4g	.	.	4g	4ryy	.	.	4E	4B	4e	4g
*	*	*	*	*	*	*	*v	*v	*	*	*	*
=314	=314	=314	=314	=314	=314	=314	=314	=314	=314	=314	=314
2C	.	2g	2C	2c	2g	2e	1r	2C	2c	2e	2g
2Fn	.	2a	2Fn	2A	2a	2c	.	2Fn	2c	2fn	2a
=315	=315	=315	=315	=315	=315	=315	=315	=315	=315	=315	=315
2D	6 5 n	2a	2D	1B	2a	2fn	1r	2D	2B	2fn	2a
2E	#	2g#X	2E	.	2g#X	2e	.	2E	2B	2e	2g#X
*	*	*	*v	*v	*	*	*	*	*	*	*
=316	=316	=316	=316	=316	=316	=316	=316	=316	=316	=316
*	*	*	*	*	*	*^	*	*	*	*
2AA	.	2a	2AA	2a	2c	2e\	1r	2AA	2c	2e	2a
2GGni	.	2b	2GGni	2b	2d	2gni\	.	2GG	2d	2g	2b
=317	=317	=317	=317	=317	=317	=317	=317	=317	=317	=317	=317
2E	.	2b	2E	2b	2e	2g\	1r	2E	2e	2g	2b
2BB	6	2b	2BB	2b	2d	[2g\	.	2BB	2d	[2g	2b
=318	=318	=318	=318	=318	=318	=318	=318	=318	=318	=318	=318
2D	4	2a	2D	2a	2d	4g\]	1r	2D	2d	(4g]	2a
2G	3	4b	2G	4b	2d	[2g\	.	4G	4d	4g	4b
.	.	4b	.	4b	.	.	.	4G	4d	4g	4b
=319	=319	=319	=319	=319	=319	=319	=319	=319	=319	=319	=319
2C	6 5	2a	2C	2a	2e	2g\]	1r	2C	2e	2g	2a
2D	.	2a	2D	2a	2d	2f#\	.	2D	2d	2f#	2a
=320	=320	=320	=320	=320	=320	=320	=320	=320	=320	=320	=320
2GG	.	2g	2GG	2g	2B	2d\	1r	2GG	2B	2g	2g
2Fn	2	4g	2Fn	4g	2B	2d\	.	4Fn	4B	4d	4g
.	.	4g	.	4g	.	.	.	4F	4B	4d	4g
=321	=321	=321	=321	=321	=321	=321	=321	=321	=321	=321	=321
2E	6	2g	2E	2g	1c	1e\	1r	2E	2c	2e	2g
2C	6	2a	2C	2a	.	.	.	2C	2c	2e	2a
=322	=322	=322	=322	=322	=322	=322	=322	=322	=322	=322	=322
2BB	7	2a	2BB	2a	2d	2fn\	1r	2BB	2d	2fn	2a
*	*	*	*^	*	*	*	*	*	*	*	*
2E	#	2g#X	2E	2B	2g#X	2ryy	2e\	.	2E	2B	2e	2g#X
*	*	*	*v	*v	*	*	*	*	*	*	*	*
=323	=323	=323	=323	=323	=323	=323	=323	=323	=323	=323	=323
2AA	.	2a	2AA	2a	2c	2e\	1r	2AA	2c	2e	2a
2D#X	5	2b	2D#X	2b	2f#Xi	2a\	.	2D#X	2A	2f#Xi	2b
=324	=324	=324	=324	=324	=324	=324	=324	=324	=324	=324	=324
2E	.	2b	2E	2b	2e	2g\	1r	2E	2G	2e	2b
2Dni	2	2b	2Dni	2b	2e	[2g\	.	2Dni	[2G	2e	2b
=325	=325	=325	=325	=325	=325	=325	=325	=325	=325	=325	=325
2C	6 5	2a	2C	2a	2e	2g\]	1r	2C	2G]	2e	2a
2D	.	4a	2D	4a	2d	2f#\	.	4D	4F#	4d	4a
.	.	4a	.	4a	.	.	.	4D	4F#	4c	4a
=326	=326	=326	=326	=326	=326	=326	=326	=326	=326	=326	=326
2GG	.	2g	2GG	2g	2G	2d\	1r	2GG	2G	2B	2g
*	*	*	*^	*	*	*	*	*	*	*	*
2BB	6	4g	2BB	2G	4g	4ryy	2d\	.	4BB	4G	4d	4g
.	.	4g	.	.	4g	4ryy	.	.	4BB	4G	4d	4g
*	*	*	*	*	*	*	*v	*v	*	*	*	*
=327	=327	=327	=327	=327	=327	=327	=327	=327	=327	=327	=327
2C	5	2e	2C	2G	2e	2c	1r	2C	2G	2c	2e
2C	6	2a	2C	2c	2a	2e	.	2C	2c	2e	2a
=328	=328	=328	=328	=328	=328	=328	=328	=328	=328	=328	=328
[2D	6 4	2g	1D	2B	2g	1d	1r	2D	2B	2d	2g
2D]	5 3	2f#	.	2A	2f#	.	.	2D	2A	2d	2f#
=329	=329	=329	=329	=329	=329	=329	=329	=329	=329	=329	=329
1GG	.	1g	1GG	1G	1g	1d	1B\	1GG	1B	1d	1g
*	*	*	*v	*v	*	*	*	*	*	*	*
=330||	=330||	=330||	=330||	=330||	=330||	=330||	=330||	=330||	=330||	=330||
*	*	*	*	*	*	*^	*	*	*	*
2r	.	2r	.	2r	2r	2r	1r	2r	2r	2r	2r
2G	.	2dd	2G	2dd	2g	2b\	.	2G	2B	2d	2dd
=331	=331	=331	=331	=331	=331	=331	=331	=331	=331	=331	=331
2F#	6	2dd	2F#	2dd	2d	2a\	1r	2F#	2A	2d	2dd
2D	7	2cc	2D	2cc	2d	2f#\	.	2D	2d	2f#	2cc
=332	=332	=332	=332	=332	=332	=332	=332	=332	=332	=332	=332
2G	.	2b	2G	2b	2d	2g\	1r	2G	2d	2g	2b
2F#	6 4 3	2b	2F#	2b	2d#X	2a\	.	2F#	2d#X	2a	2b
=333	=333	=333	=333	=333	=333	=333	=333	=333	=333	=333	=333
2E	.	2b	2E	2b	2e	2g\	1r	2E	2e	2g	2b
2D	6 n	4b	2Dni	4b	2fn	2g\	.	4D	4f	4g	4b
.	.	4b	.	4b	.	.	.	4D	4f	4g	4b
=334	=334	=334	=334	=334	=334	=334	=334	=334	=334	=334	=334
2C	.	1cc	2C	1cc	2e	2g\	1r	(2C	2e	(2g	1cc
2D	7 #	.	2D	.	2d	2f#Xi\	.	2D)	2d	2f#)	.
=335	=335	=335	=335	=335	=335	=335	=335	=335	=335	=335	=335
2GG	.	2b	2GG	2b	2d	2g\	1r	2GG	2d	2g	2b
2G	.	2b	2G	2b	[2d	2g\	.	2G	2d	2g	2b
=336	=336	=336	=336	=336	=336	=336	=336	=336	=336	=336	=336
2E	7 #	2b	2E	2b	2d]	2g#X\	1r	2E	2d	2g#X	2b
2A	.	4a	2A	4a	2c	2e\	.	4A	4c	4e	4a
.	.	4a	.	4a	.	.	.	4A	4c	4e	4a
*	*	*	*	*	*	*v	*v	*	*	*	*
=337	=337	=337	=337	=337	=337	=337	=337	=337	=337	=337
*	*	*	*^	*	*	*	*	*	*	*
2E	6 4	2a	1E	2c	2a	1e	1r	2E	2c	2e	2a
2E	5 #	2g#X	.	2B	2g#X	.	.	2E	2B	2e	2g#X
*	*	*	*v	*v	*	*	*	*	*	*	*
=338	=338	=338	=338	=338	=338	=338	=338	=338	=338	=338
*	*	*	*	*	*	*^	*	*	*	*
2AA	.	2a	2AA	2a	2c	2e\	1r	2AA	2c	2e	2a
2GGni	.	2b	2GGni	2b	2d	2gni\	.	2GG	2d	2g	2b
=339	=339	=339	=339	=339	=339	=339	=339	=339	=339	=339	=339
2BB	6	2dd	2BB	2dd	2d	2g\	1r	2BB	2d	2g	2dd
2D	7	2cc	2D	2cc	2d	2f#\	.	2D	2d	2f#	2cc
=340	=340	=340	=340	=340	=340	=340	=340	=340	=340	=340	=340
2GG	.	2b	2GG	2b	2d	2g\	1r	2GG	2d	2g	2b
2F#	6 4 2	2b	2F#	2b	2d	2g\	.	2F#	2d	2g	2b
=341	=341	=341	=341	=341	=341	=341	=341	=341	=341	=341	=341
2E	.	2b	2E	2b	2e	2g\	1r	2E	2e	2g	2b
[2G	.	4b	[2G	4b	2d	2g\	.	4G	4d	4g	4b
.	.	4b	.	4b	.	.	.	4G	4d	4g	4b
=342	=342	=342	=342	=342	=342	=342	=342	=342	=342	=342	=342
2G]	2	1cc	2G]	1cc	2e	1a\	1r	(2G	(2e	1a	1cc
2F#	5	.	2F#	.	2d	.	.	2F#)	2d)	.	.
=343	=343	=343	=343	=343	=343	=343	=343	=343	=343	=343	=343
2G	.	2b	2G	2b	2d	2g\	1r	2G	2d	2g	2b
2E	.	2b	2E	2b	2e	2g\	.	2E	2e	2g	2b
=344	=344	=344	=344	=344	=344	=344	=344	=344	=344	=344	=344
2D	6 n	2b	2D	2b	2fn	2fn/	1r	2D	2f	2fn	2b
*	*	*	*^	*	*	*	*	*	*	*	*
2C	6	4a	2C	2c	4a	4ryy	2e\	.	4C	4c	4e	4a
.	.	4a	.	.	4a	4ryy	.	.	4C	4c	4e	4a
*	*	*	*	*	*	*	*v	*v	*	*	*	*
=345	=345	=345	=345	=345	=345	=345	=345	=345	=345	=345	=345
2D	6 5 n	2a	2D	1B	2a	2fn	1r	2D	2B	2fn	2a
2E	#	2g#X	2E	.	2g#X	2e	.	2E	2B	2e	2g#X
*	*	*	*v	*v	*	*	*	*	*	*	*
=346	=346	=346	=346	=346	=346	=346	=346	=346	=346	=346
*	*	*	*	*	*	*^	*	*	*	*
2AA	.	2a	2AA	2a	2c	2e\	1r	2AA	2c	2e	2a
2Gni	.	2b	2Gni	2b	2d	2gni\	.	2G	2d	2g	2b
=347	=347	=347	=347	=347	=347	=347	=347	=347	=347	=347	=347
2F#	6	2dd	2F#	2dd	2d	2a\	1r	2F#	2d	2a	2dd
2E	6	2cc	2E	2cc	2e	2g\	.	2E	2e	2g	2cc
=348	=348	=348	=348	=348	=348	=348	=348	=348	=348	=348	=348
2D#X	5	2b	2D#X	2b	2f#	2a\	1r	2D#X	2f#	2a	2b
2BB	7 #	2b	2BB	2b	2d#X	2a\	.	2BB	2d#X	2a	2b
=349	=349	=349	=349	=349	=349	=349	=349	=349	=349	=349	=349
2E	.	2b	2E	2b	2e	2g\	1r	2E	2e	2g	2b
2Dni	6 n	4b	2Dni	4b	2fn	2g\	.	4Dni	4f	4g	4b
.	.	4b	.	4b	.	.	.	4D	4f	4g	4b
=350	=350	=350	=350	=350	=350	=350	=350	=350	=350	=350	=350
2C	.	1cc	2C	1cc	1e	1g\	1r	(2C	1e	1g	1cc
2E	6	.	2E	.	.	.	.	2E)	.	.	.
=351	=351	=351	=351	=351	=351	=351	=351	=351	=351	=351	=351
2G	.	2b	2G	2b	2d	2g\	1r	2G	2d	2g	2b
2E	.	2b	2E	2b	2e	2g\	.	2E	2e	2g	2b
=352	=352	=352	=352	=352	=352	=352	=352	=352	=352	=352	=352
2D	4	2b	2D	2b	2e	2g#X\	1r	2D	2e	2g#X	2b
2C	6	2a	2C	2a	2e	2a\	.	2C	2e	2a	2a
=353	=353	=353	=353	=353	=353	=353	=353	=353	=353	=353	=353
2BB	7	2a	2BB	2a	2d	2fn\	1r	2BB	2d	2fn	2a
*	*	*	*^	*	*	*	*	*	*	*	*
2E	#	2g#X	2E	2B	2g#X	2ryy	2e\	.	2E	2B	2e	2g#X
*	*	*	*	*	*	*	*v	*v	*	*	*	*
=354	=354	=354	=354	=354	=354	=354	=354	=354	=354	=354	=354
1AA	.	1a	1AA	1A	1a	1e	1c\	1AA	1c	1e	1a
*	*	*	*v	*v	*	*	*	*	*	*	*
=355	=355	=355	=355	=355	=355	=355	=355	=355	=355	=355
*	*	*	*	*	*	*^	*	*	*	*
2BB	6	2g	2BB	2g	2d	2g\	1r	2BB	2d	2g	2g
2D	.	2a	2D	2a	2d	2f#\	.	2D	2d	2f#	2a
=356	=356	=356	=356	=356	=356	=356	=356	=356	=356	=356	=356
2G	.	2b	2G	2b	2d	2g\	1r	2G	2d	2g	2b
2E	.	2b	2E	2b	2e	[2g\	.	2E	2e	[2g	2b
=357	=357	=357	=357	=357	=357	=357	=357	=357	=357	=357	=357
2C	6 5	2.a	2C	2.a	2e	2g\]	1r	2C	2e	2g]	2.a
2D	5	.	2D	.	2d	2f#\	.	2D	2d	2f#	.
.	6	4b	.	4b	.	.	.	.	.	.	4b
=358	=358	=358	=358	=358	=358	=358	=358	=358	=358	=358	=358
2GG	.	2b	2GG	2b	2d	2g\	1r	2GG	2d	2g	2b
2G	.	4b	2G	4b	2d	2g\	.	4G	4d	4g	4b
.	.	4b	.	4b	.	.	.	4G	4d	4g	4b
=359	=359	=359	=359	=359	=359	=359	=359	=359	=359	=359	=359
2C	.	2cc	2C	2cc	2e	2g\	1r	2C	2e	2g	2cc
2E	.	4b	2E	4b	2e	[2g\	.	4E	4e	4g	4b
.	.	4b	.	4b	.	.	.	4E	4e	4g	4b
=360	=360	=360	=360	=360	=360	=360	=360	=360	=360	=360	=360
2C	6 5	2a	2C	2a	2e	2g\]	1r	2C	2e	2g	2a
*	*	*	*^	*	*	*	*	*	*	*	*
2D	.	2a	2D	4d	2a	4ryy	2f#\	.	2D	(4d	2f#	2a
.	.	.	.	4c	.	4ryy	.	.	.	4c)	.	.
*	*	*	*v	*v	*	*	*	*	*	*	*	*
=361	=361	=361	=361	=361	=361	=361	=361	=361	=361	=361	=361
1GG	.	1g	1GG	1g	1B	1d\	1r	1GG	1B	1g	1g
=362	=362	=362	=362	=362	=362	=362	=362	=362	=362	=362	=362
2r	.	2r	.	2r	2r	2r	1r	2r	2r	2r	2r
2F#	6	2dd	2F#	2dd	2d	2a\	.	2F#	2d	2a	2dd
=363	=363	=363	=363	=363	=363	=363	=363	=363	=363	=363	=363
2G	.	2b	2G	2b	2d	2g\	1r	2G	2d	2g	2b
2GG	n7	2dd	2GG	2dd	2fn	2b\	.	2GG	2B	2fn	2dd
=364	=364	=364	=364	=364	=364	=364	=364	=364	=364	=364	=364
2C	.	2ee	2C	2ee	2e	2cc\	2g/	2C	2G	2e	2ee
*	*	*	*	*	*	*v	*v	*	*	*	*
2G	.	4dd	2G	4dd	2e	2g\	4G	4B	4g	4dd
.	.	4dd	.	4dd	.	.	4G	4B	4g	4dd
=365	=365	=365	=365	=365	=365	=365	=365	=365	=365	=365
2c	.	2ee	2c	2ee	2g	2cc\	2c	2c	2g	2ee
2B	6	2dd	2B	2dd	2d	[2g\	2B	2d	[2g	2dd
=366	=366	=366	=366	=366	=366	=366	=366	=366	=366	=366
2A	7	2cc	2A	2cc	2e	2g\]	2A	2e	2g]	2cc
2d	7	2cc	2d	2cc	2d	2f#\	2d	2d	2f#	2cc
=367	=367	=367	=367	=367	=367	=367	=367	=367	=367	=367
2G	.	2b	2G	2b	2d	2g\	2G	2d	2g	2b
*	*	*	*^	*	*	*	*	*	*	*
2E	.	2g	2E	2G	2g	2%9ryy	2B\	2E	2e	2g	2g
*	*	*	*	*	*	*v	*v	*	*	*	*
=368	=368	=368	=368	=368	=368	=368	=368	=368	=368	=368
2BB	6	2g	2BB	2G	2g	2d	2BB	2G	2d	2g
2C	.	4g	2C	[2G	4g	2e	4C	4G	4e	4g
.	.	4g	.	.	4g	.	4C	4G	4e	4g
=369	=369	=369	=369	=369	=369	=369	=369	=369	=369	=369
2C	6 5	2a	2C	2G]	2a	2e	2C	2G	2e	2a
2D	.	4a	2D	2F#	4a	2d	4D	4F#	4d	4a
.	.	4a	.	.	4a	.	4D	4F#	4d	4a
=370	=370	=370	=370	=370	=370	=370	=370	=370	=370	=370
2GG	.	2b	2GG	2G	2b	2d	2GG	2G	2d	2b
2D	6 n	4b	2D	2Fn	4b	2fn	4D	4F	4fn	4b
.	.	4b	.	.	4b	.	4D	4F	4f	4b
=371	=371	=371	=371	=371	=371	=371	=371	=371	=371	=371
2E	6 4	2a	2E	1E	2a	2c	2E	2E	2c	2a
2E	5 #	2g#X	2E	.	2g#X	2B	2E	2E	2B	2g#X
=372	=372	=372	=372	=372	=372	=372	=372	=372	=372	=372
*	*	*	*	*^	*	*^	*	*	*	*
2AA	.	2a	2AA	2E	2A/	2a	2c	2e/	2AA	2E	2c	2a
*	*	*	*v	*v	*v	*	*	*	*	*	*	*
2E	.	2b	2E	2b	2e	2gni\	2E	2G	2e	2b
=373	=373	=373	=373	=373	=373	=373	=373	=373	=373	=373
2F#	6	2dd	2F#	2dd	2d	2a\	2F#	2A	2d	2dd
2D	.	2dd	2D	2dd	2f#	2a\	2D	2A	2f#	2dd
*	*	*	*	*	*v	*v	*	*	*	*
=374	=374	=374	=374	=374	=374	=374	=374	=374	=374
*	*	*	*^	*	*	*	*	*	*
2G	.	2b	2G	2d	2b	2g	2G	2G	2g	2b
2B	6	2dd	2B	2d	2dd	2g	2B	2d	2g	2dd
=375	=375	=375	=375	=375	=375	=375	=375	=375	=375	=375
2c	.	2ee	2c	[2c	2ee	2g	2c	[2c	2g	2ee
2G	4	4dd	2G	4c]	4dd	2g	4G	4c]	4g	4dd
.	3	4dd	.	4B	4dd	.	4G	4B	4g	4dd
=376	=376	=376	=376	=376	=376	=376	=376	=376	=376	=376
2C	.	2ee	2C	2c	2ee	2g	2C	2c	2g	2ee
2C	.	4ee	2C	[2c	4ee	2g	4C	4c	4g	4ee
.	.	4ee	.	.	4ee	.	4C	4c	4g	4ee
=377	=377	=377	=377	=377	=377	=377	=377	=377	=377	=377
2D	8 7	2dd	2D	2c]	2dd	2f#	2D	2c	2f#	2dd
2D	6 4	2dd	2D	[2B	2dd	2g	2D	[2B	2g	2dd
=378	=378	=378	=378	=378	=378	=378	=378	=378	=378	=378
2E	6 5	1cc	2E	2B]	1cc	2g	(2E	(2B]	(2g	1cc
2F#	6 5	.	2F#	2A	.	2d	2F#)	2A)	2d)	.
=379	=379	=379	=379	=379	=379	=379	=379	=379	=379	=379
2G	.	2b	2G	2G	2b	2d	2G	2G	2d	2b
2E	.	4g	2E	2B	4g	2e	4E	4B	4e	4g
.	.	4g	.	.	4g	.	4E	4B	4e	4g
=380	=380	=380	=380	=380	=380	=380	=380	=380	=380	=380
2C	.	2g	2C	2c	2g	2e	2C	2c	2e	2g
2BB	6	2g	2BB	[2G	2g	2d	2BB	2d	[2g	2g
=381	=381	=381	=381	=381	=381	=381	=381	=381	=381	=381
2AA	7	2a	2AA	2G]	2a	2c	2AA	2c	2g]	2a
2D	.	4a	2D	2F#	4a	2d	4D	4d	4f#	4a
.	.	4a	.	.	4a	.	4D	4d	4f#	4a
=382	=382	=382	=382	=382	=382	=382	=382	=382	=382	=382
2GG	.	2b	2GG	2G	2b	2d	2GG	2d	2g	2b
2E	.	2b	2E	2G	2b	2e	2E	2e	2g	2b
=383	=383	=383	=383	=383	=383	=383	=383	=383	=383	=383
2D#X	5	2b	2D#X	2A	2b	2f#	2D#X	2f#	2a	2b
2Dn	4	4b	2Dn	2G#X	4b	2e	4Dn	4e	4g#X	4b
.	.	4b	.	.	4b	.	4D	4e	4g#	4b
=384	=384	=384	=384	=384	=384	=384	=384	=384	=384	=384
2C	6	2a	2C	2A	2a	1e	2C	2e	(4a	2a
.	.	.	.	.	.	.	.	.	4e)	.
2E	#	2g#X	2E	2B	2g#X	.	2E	2B	2e	2g#X
*	*	*	*v	*v	*	*	*	*	*	*
=385	=385	=385	=385	=385	=385	=385	=385	=385	=385
*	*	*	*	*	*^	*	*	*	*
2AA	.	2a	2AA	2a	2c	2e\	2AA	2c	2e	2a
2Gni	.	2b	2Gni	2b	2d	2gni\	2G	2d	2g	2b
*	*	*	*	*	*v	*v	*	*	*	*
=386	=386	=386	=386	=386	=386	=386	=386	=386	=386
*	*	*	*^	*	*	*	*	*	*
2C	.	2ee	2C	2c	2ee	2g	2C	2c	2g	2ee
2D	.	2dd	2D	2A	2dd	2f#	2D	2A	2f#	2dd
=387	=387	=387	=387	=387	=387	=387	=387	=387	=387	=387
2E	6	2cc	2E	2e	2cc	2g	2E	2G	2g	2cc
2F#	5	2cc	2F#	2d	2cc	2a	2F#	2d	2a	2cc
=388	=388	=388	=388	=388	=388	=388	=388	=388	=388	=388
2G	.	2b	2G	2d	2b	2g	2G	2d	2g	2b
2D	.	2a	2D	2d	2a	2f#	2D	2d	2f#	2a
=389	=389	=389	=389	=389	=389	=389	=389	=389	=389	=389
*	*	*	*	*	*	*^	*	*	*	*
2G	.	2b	2G	2d	2b	2ryy	2g\	2G	2d	2g	2b
*	*	*	*v	*v	*	*	*	*	*	*	*
2C	.	2cc	2C	2cc	2e	2g\	2C	2e	2g	2cc
=390	=390	=390	=390	=390	=390	=390	=390	=390	=390	=390
2BB	6	1dd	2BB	1dd	2d	2g\	(2BB	(2d	1g	1dd
2G	.	.	2G	.	2g	2b\	2G)	2B)	.	.
=391	=391	=391	=391	=391	=391	=391	=391	=391	=391	=391
2F#	5	2cc	2F#	2cc	2d	2a\	2F#	2d	2a	2cc
2G	.	2b	2G	2b	2d	[2g\	2G	2d	[2g	2b
=392	=392	=392	=392	=392	=392	=392	=392	=392	=392	=392
2C	6 5	1a	2C	1a	2e	2g\]	2C	(2e	(2g]	1a
2D	.	.	2D	.	4d	2f#\	2D	4d	2f#)	.
.	.	.	.	.	4c	.	.	4c)	.	.
=393	=393	=393	=393	=393	=393	=393	=393	=393	=393	=393
2GG	.	2g	2GG	2g	2B	2d\	2GG	2B	2g	2g
*	*	*	*^	*	*	*	*	*	*	*
2E	.	2g	2E	2B	(2g	2%5ryy	2e\	(2E	(2B	2e	(2g
*	*	*	*	*	*	*v	*v	*	*	*	*
=394	=394	=394	=394	=394	=394	=394	=394	=394	=394	=394
2C	5	2g	1C	1c	2g	1e	1C	1c	1e	2g
2C	6	2a	.	.	2a	.	.	.	.	2a
=395	=395	=395	=395	=395	=395	=395	=395	=395	=395	=395
1D	6 4	2g	1D	2B	2g	2d	1D)	2B	1d	2g
.	5 3	2f#	.	2A	2f#)	2c	.	2A)	.	2f#)
=396	=396	=396	=396	=396	=396	=396	=396	=396	=396	=396
*	*	*	*	*	*	*^	*	*	*	*
1GG	.	1g	1GG	1G	1g	1d	1B\	1GG	1B	1d	1g
*	*	*	*v	*v	*	*	*	*	*	*	*
*	*	*	*	*v	*v	*v	*	*	*	*
==	==	==	==	==	==	==	==	==
*-	*-	*-	*-	*-	*-	*-	*-	*-
!!!system-decoration: {(s1,s2,s3,s4)}{(s5,s6)}{(s7,s8)}
!!!RDF**kern: i = editorial accidental
!!!RDF**kern: > = above
!!!RDF**kern: < = below
!!!AGN: chorale
!!!EED: Derek Remeš
!!!EED2: Victor Phan
!!!END: 2023/11/28
!!!ENC: Wolfgang Drescher
!!!EEV: 2023/11/29
!!!title: @{ONM}. @{OTL}